;FLAVOR:Marlin
;TIME:21460
;Filament used: 21.1604m
;Layer height: 0.2
;MINX:9.632
;MINY:34.6
;MINZ:0.2
;MAXX:215.368
;MAXY:208.022
;MAXZ:22
;Generated with Creality Slicer 4.8.2-172
M140 S50
M105
M190 S50
M104 S200
M105
M109 S200
M82 ;absolute extrusion mode

G28 ;Home

G92 E0 ;Reset Extruder
G1 Z2.0 F3000 ;Move Z Axis up
G1 X10.1 Y20 Z0.28 F5000.0 ;Move to start position
G1 X10.1 Y200.0 Z0.28 F1500.0 E15 ;Draw the first line
G1 X10.4 Y200.0 Z0.28 F5000.0 ;Move to side a little
G1 X10.4 Y20 Z0.28 F1500.0 E30 ;Draw the second line
G92 E0 ;Reset Extruder
G1 Z2.0 F3000 ;Move Z Axis up

G92 E0
G92 E0
G1 F2700 E-5
;LAYER_COUNT:110
;LAYER:0
M107
G0 F6000 X29.864 Y37.227 Z0.2
;TYPE:SKIRT
G1 F2700 E0
G1 F1200 X30.604 Y36.651 E0.03119
G1 X31.39 Y36.139 E0.06239
G1 X32.217 Y35.697 E0.09358
G1 X33.079 Y35.327 E0.12478
G1 X33.969 Y35.031 E0.15597
G1 X34.881 Y34.813 E0.18716
G1 X35.808 Y34.672 E0.21835
G1 X36.679 Y34.613 E0.24738
G1 X37 Y34.604 E0.25806
G1 X37.308 Y34.6 E0.26831
G1 X186.271 Y34.6 E5.22284
G1 X187.127 Y34.611 E5.25131
G1 X188.063 Y34.665 E5.2825
G1 X188.991 Y34.797 E5.31367
G1 X189.905 Y35.009 E5.34488
G1 X190.797 Y35.298 E5.37606
G1 X191.662 Y35.661 E5.40727
G1 X192.492 Y36.097 E5.43845
G1 X193.283 Y36.602 E5.46966
G1 X194.027 Y37.173 E5.50085
G1 X194.72 Y37.805 E5.53205
G1 X195.357 Y38.493 E5.56323
G1 X195.932 Y39.234 E5.59443
G1 X196.443 Y40.02 E5.62561
G1 X196.885 Y40.848 E5.65683
G1 X197.254 Y41.71 E5.68802
G1 X197.549 Y42.6 E5.7192
G1 X197.767 Y43.512 E5.75039
G1 X197.907 Y44.44 E5.7816
G1 X197.965 Y45.301 E5.81031
G1 X197.974 Y45.621 E5.82095
G1 X197.978 Y45.93 E5.83123
G1 X197.977 Y65.527 E6.48303
G1 X197.967 Y66.247 E6.50698
G1 X197.914 Y67.183 E6.53816
G1 X197.783 Y68.103 E6.56907
G1 X197.534 Y69.438 E6.61424
G1 X197.499 Y69.614 E6.62021
G1 X197.069 Y72.108 E6.70438
G1 X196.715 Y74.584 E6.78757
G1 X196.429 Y77.081 E6.87116
G1 X196.213 Y79.599 E6.95522
G1 X196.067 Y82.133 E7.03964
G1 X195.995 Y84.61 E7.12206
G1 X195.993 Y87.135 E7.20604
G1 X196.063 Y89.667 E7.29029
G1 X196.202 Y92.169 E7.37363
G1 X196.413 Y94.669 E7.45708
G1 X196.697 Y97.182 E7.5412
G1 X197.051 Y99.689 E7.62541
G1 X197.472 Y102.153 E7.70855
G1 X197.962 Y104.615 E7.79204
G1 X198.521 Y107.049 E7.8751
G1 X199.162 Y109.52 E7.96001
G1 X199.858 Y111.925 E8.04328
G1 X200.627 Y114.321 E8.12698
G1 X201.468 Y116.711 E8.21125
G1 X202.364 Y119.04 E8.29424
G1 X203.33 Y121.359 E8.3778
G1 X204.378 Y123.682 E8.46256
G1 X205.475 Y125.943 E8.54614
G1 X206.628 Y128.158 E8.6292
G1 X207.863 Y130.374 E8.71358
G1 X208.18 Y130.911 E8.73432
G1 X208.59 Y131.633 E8.76193
G1 X209.016 Y132.468 E8.79311
G1 X209.369 Y133.337 E8.82431
G1 X209.554 Y133.901 E8.84405
G1 X209.65 Y134.223 E8.85523
G1 X209.734 Y134.519 E8.86546
G1 X214.857 Y153.644 E9.52399
G1 X215.031 Y154.331 E9.54756
G1 X215.223 Y155.249 E9.57875
G1 X215.335 Y156.181 E9.60997
G1 X215.368 Y157.118 E9.64116
G1 X215.343 Y157.779 E9.66316
G1 X215.24 Y158.711 E9.69434
G1 X215.051 Y159.666 E9.72672
G1 X214.963 Y160.025 E9.73902
G1 X214.904 Y160.253 E9.74685
G1 X209.793 Y179.327 E10.40363
G1 X209.595 Y180.026 E10.4278
G1 X209.301 Y180.917 E10.459
G1 X208.932 Y181.779 E10.49019
G1 X208.491 Y182.607 E10.52139
G1 X207.982 Y183.394 E10.55257
G1 X207.407 Y184.135 E10.58376
G1 X207.011 Y184.578 E10.60352
G1 X206.776 Y184.827 E10.61491
G1 X206.554 Y185.055 E10.6255
G1 X192.533 Y199.075 E11.28498
G1 X192.043 Y199.551 E11.3077
G1 X191.343 Y200.175 E11.33889
G1 X190.592 Y200.738 E11.37011
G1 X190.027 Y201.099 E11.39241
G1 X189.203 Y201.547 E11.4236
G1 X188.344 Y201.923 E11.45479
G1 X187.511 Y202.208 E11.48407
G1 X187.189 Y202.304 E11.49525
G1 X186.893 Y202.388 E11.50548
G1 X167.765 Y207.512 E12.16411
G1 X167.077 Y207.686 E12.18772
G1 X166.159 Y207.877 E12.2189
G1 X165.228 Y207.989 E12.25009
G1 X164.29 Y208.022 E12.28131
G1 X163.633 Y207.997 E12.30318
G1 X162.701 Y207.894 E12.33436
G1 X161.746 Y207.705 E12.36674
G1 X161.383 Y207.616 E12.37917
G1 X161.155 Y207.557 E12.38701
G1 X142.038 Y202.433 E13.04528
G1 X141.394 Y202.251 E13.06754
G1 X141.089 Y202.16 E13.07813
G1 X140.163 Y201.868 E13.11042
G1 X139.163 Y201.539 E13.14544
G1 X136.748 Y200.817 E13.22927
G1 X134.349 Y200.175 E13.31187
G1 X131.868 Y199.584 E13.3967
G1 X129.365 Y199.062 E13.48174
G1 X126.937 Y198.629 E13.56377
G1 X124.461 Y198.258 E13.64704
G1 X121.927 Y197.951 E13.73194
G1 X119.448 Y197.722 E13.81474
G1 X116.915 Y197.56 E13.89916
G1 X114.417 Y197.471 E13.9823
G1 X111.898 Y197.452 E14.06608
G1 X109.369 Y197.506 E14.15022
G1 X106.852 Y197.63 E14.23403
G1 X104.337 Y197.825 E14.31793
G1 X101.848 Y198.09 E14.40119
G1 X99.346 Y198.427 E14.48516
G1 X96.893 Y198.829 E14.56783
G1 X94.407 Y199.308 E14.65204
G1 X91.929 Y199.86 E14.73648
G1 X89.506 Y200.471 E14.81959
G1 X87.081 Y201.157 E14.90341
G1 X84.599 Y201.936 E14.98993
G1 X84.078 Y202.107 E15.00817
G1 X83.792 Y202.197 E15.01814
G1 X83.441 Y202.302 E15.03033
G1 X83.135 Y202.388 E15.0409
G1 X64.007 Y207.512 E15.69953
G1 X63.319 Y207.686 E15.72313
G1 X62.401 Y207.877 E15.75432
G1 X61.47 Y207.989 E15.78551
G1 X60.532 Y208.022 E15.81673
G1 X59.875 Y207.997 E15.83859
G1 X58.943 Y207.894 E15.86978
G1 X57.988 Y207.705 E15.90216
G1 X57.625 Y207.616 E15.91459
G1 X57.397 Y207.557 E15.92242
G1 X38.274 Y202.432 E16.5809
G1 X37.628 Y202.249 E16.60323
G1 X36.737 Y201.955 E16.63444
G1 X35.875 Y201.586 E16.66563
G1 X35.047 Y201.145 E16.69683
G1 X34.26 Y200.636 E16.728
G1 X33.519 Y200.061 E16.7592
G1 X33.076 Y199.665 E16.77896
G1 X32.827 Y199.43 E16.79035
G1 X32.599 Y199.208 E16.80093
G1 X18.569 Y185.177 E17.46088
G1 X18.101 Y184.695 E17.48323
G1 X17.477 Y183.995 E17.51442
G1 X16.915 Y183.244 E17.54562
G1 X16.555 Y182.681 E17.56784
G1 X16.107 Y181.857 E17.59904
G1 X15.731 Y180.998 E17.63023
G1 X15.446 Y180.165 E17.65951
G1 X15.35 Y179.843 E17.67068
G1 X15.266 Y179.547 E17.68092
G1 X10.14 Y160.412 E18.33979
G1 X9.966 Y159.722 E18.36346
G1 X9.776 Y158.803 E18.39467
G1 X9.664 Y157.872 E18.42586
G1 X9.632 Y156.935 E18.45704
G1 X9.681 Y155.998 E18.48825
G1 X9.809 Y155.069 E18.51944
G1 X9.92 Y154.53 E18.53774
G1 X9.991 Y154.226 E18.54813
G1 X10.078 Y153.881 E18.55996
G1 X15.219 Y134.7 E19.22044
G1 X15.398 Y134.065 E19.24239
G1 X15.69 Y133.173 E19.2736
G1 X16.058 Y132.311 E19.30478
G1 X16.331 Y131.776 E19.32475
G1 X16.857 Y130.816 E19.36116
G1 X17.23 Y130.161 E19.38623
G1 X18.402 Y127.957 E19.46926
G1 X19.518 Y125.708 E19.55276
G1 X20.585 Y123.396 E19.63745
G1 X21.559 Y121.115 E19.71995
G1 X22.486 Y118.765 E19.80397
G1 X23.353 Y116.373 E19.88859
G1 X24.136 Y114.002 E19.97164
G1 X24.864 Y111.573 E20.05598
G1 X25.51 Y109.165 E20.1389
G1 X26.108 Y106.668 E20.2243
G1 X26.605 Y104.277 E20.30553
G1 X27.062 Y101.738 E20.39133
G1 X27.431 Y99.28 E20.474
G1 X27.733 Y96.802 E20.55703
G1 X27.969 Y94.263 E20.64184
G1 X28.132 Y91.763 E20.72517
G1 X28.222 Y89.252 E20.80874
G1 X28.243 Y86.721 E20.89292
G1 X28.192 Y84.207 E20.97656
G1 X28.07 Y81.708 E21.05977
G1 X27.876 Y79.183 E21.144
G1 X27.612 Y76.674 E21.22791
G1 X27.278 Y74.197 E21.31104
G1 X26.87 Y71.693 E21.39542
G1 X26.462 Y69.565 E21.46749
G1 X26.198 Y68.237 E21.51252
G1 X26.055 Y67.31 E21.54372
G1 X25.993 Y66.433 E21.57296
G1 X25.983 Y66.107 E21.58381
G1 X25.978 Y65.77 E21.59502
G1 X25.979 Y46.125 E22.24842
G1 X25.988 Y45.46 E22.27054
G1 X26.041 Y44.524 E22.30172
G1 X26.173 Y43.595 E22.33293
G1 X26.384 Y42.681 E22.36413
G1 X26.672 Y41.789 E22.3953
G1 X27.035 Y40.924 E22.4265
G1 X27.47 Y40.093 E22.4577
G1 X27.974 Y39.303 E22.48887
G1 X28.544 Y38.558 E22.52007
G1 X29.176 Y37.864 E22.55129
G1 X29.864 Y37.227 E22.58247
G0 F6000 X30.252 Y37.423
G1 F1200 X30.988 Y36.87 E22.61309
G1 X31.769 Y36.382 E22.64372
G1 X32.589 Y35.964 E22.67433
G1 X33.443 Y35.619 E22.70497
G1 X34.323 Y35.349 E22.73558
G1 X35.223 Y35.157 E22.76619
G1 X36.137 Y35.043 E22.79683
G1 X36.69 Y35.013 E22.81525
G1 X37.011 Y35.004 E22.82593
G1 X37.308 Y35 E22.83581
G1 X186.271 Y35 E27.79033
G1 X187.121 Y35.011 E27.81861
G1 X188.04 Y35.064 E27.84923
G1 X188.951 Y35.197 E27.87985
G1 X189.847 Y35.408 E27.91046
G1 X190.721 Y35.696 E27.94107
G1 X191.568 Y36.059 E27.97172
G1 X192.379 Y36.494 E28.00233
G1 X193.149 Y36.998 E28.03294
G1 X193.873 Y37.567 E28.06356
G1 X194.545 Y38.197 E28.0942
G1 X195.16 Y38.882 E28.12482
G1 X195.713 Y39.618 E28.15544
G1 X196.2 Y40.399 E28.18605
G1 X196.617 Y41.22 E28.21668
G1 X196.962 Y42.074 E28.24731
G1 X197.231 Y42.954 E28.27792
G1 X197.423 Y43.855 E28.30856
G1 X197.536 Y44.768 E28.33916
G1 X197.565 Y45.312 E28.35728
G1 X197.574 Y45.632 E28.36792
G1 X197.578 Y45.93 E28.37784
G1 X197.577 Y65.521 E29.02944
G1 X197.567 Y66.241 E29.05338
G1 X197.514 Y67.16 E29.084
G1 X197.39 Y68.03 E29.11323
G1 X197.142 Y69.359 E29.1582
G1 X197.102 Y69.555 E29.16485
G1 X196.677 Y72.027 E29.24827
G1 X196.315 Y74.552 E29.33312
G1 X196.031 Y77.034 E29.41621
G1 X195.813 Y79.578 E29.50113
G1 X195.669 Y82.064 E29.58395
G1 X195.595 Y84.633 E29.66943
G1 X195.593 Y87.146 E29.75302
G1 X195.663 Y89.664 E29.8368
G1 X195.805 Y92.227 E29.92217
G1 X196.015 Y94.711 E30.00509
G1 X196.297 Y97.211 E30.08876
G1 X196.655 Y99.741 E30.17375
G1 X197.079 Y102.227 E30.25763
G1 X197.574 Y104.71 E30.34184
G1 X198.138 Y107.167 E30.42569
G1 X198.776 Y109.626 E30.51018
G1 X199.472 Y112.031 E30.59345
G1 X200.252 Y114.46 E30.6783
G1 X201.093 Y116.851 E30.76261
G1 X201.98 Y119.158 E30.84481
G1 X202.973 Y121.541 E30.93068
G1 X204.011 Y123.843 E31.01467
G1 X205.117 Y126.124 E31.09898
G1 X206.266 Y128.331 E31.18174
G1 X207.526 Y130.591 E31.2678
G1 X207.938 Y131.291 E31.29481
G1 X208.242 Y131.829 E31.31537
G1 X208.659 Y132.65 E31.34599
G1 X209.004 Y133.503 E31.3766
G1 X209.171 Y134.015 E31.39451
G1 X209.267 Y134.337 E31.40569
G1 X209.348 Y134.623 E31.41557
G1 X214.47 Y153.742 E32.0739
G1 X214.644 Y154.429 E32.09747
G1 X214.831 Y155.331 E32.12811
G1 X214.939 Y156.245 E32.15872
G1 X214.967 Y157.165 E32.18933
G1 X214.944 Y157.752 E32.20887
G1 X214.842 Y158.667 E32.23949
G1 X214.662 Y159.571 E32.27015
G1 X214.518 Y160.149 E32.28996
G1 X209.408 Y179.218 E32.94658
G1 X209.21 Y179.917 E32.97074
G1 X208.921 Y180.791 E33.00136
G1 X208.557 Y181.637 E33.03199
G1 X208.121 Y182.448 E33.06261
G1 X207.616 Y183.218 E33.09324
G1 X207.047 Y183.941 E33.12384
G1 X206.72 Y184.303 E33.14007
G1 X206.485 Y184.552 E33.15145
G1 X206.271 Y184.772 E33.16166
G1 X192.254 Y198.788 E33.82096
G1 X191.764 Y199.264 E33.84368
G1 X191.076 Y199.876 E33.8743
G1 X190.338 Y200.427 E33.90494
G1 X189.822 Y200.756 E33.92529
G1 X189.012 Y201.195 E33.95593
G1 X188.168 Y201.562 E33.98654
G1 X187.397 Y201.825 E34.01364
G1 X187.075 Y201.921 E34.02481
G1 X186.789 Y202.002 E34.0347
G1 X167.811 Y207.087 E34.68818
G1 X166.979 Y207.298 E34.71672
G1 X166.077 Y207.485 E34.74736
G1 X165.163 Y207.593 E34.77797
G1 X164.243 Y207.621 E34.80859
G1 X163.66 Y207.598 E34.82799
G1 X162.745 Y207.496 E34.85862
G1 X161.841 Y207.316 E34.88927
G1 X161.258 Y207.171 E34.90925
G1 X142.286 Y202.087 E35.56253
G1 X141.503 Y201.866 E35.58959
G1 X141.209 Y201.779 E35.59979
G1 X140.288 Y201.488 E35.63191
G1 X139.298 Y201.162 E35.66658
G1 X136.852 Y200.431 E35.75149
G1 X134.441 Y199.785 E35.83451
G1 X131.937 Y199.189 E35.92012
G1 X129.451 Y198.671 E36.00458
G1 X127.03 Y198.239 E36.08637
G1 X124.463 Y197.854 E36.17271
G1 X122.011 Y197.558 E36.25485
G1 X119.477 Y197.323 E36.3395
G1 X116.917 Y197.16 E36.42481
G1 X114.435 Y197.071 E36.50742
G1 X111.892 Y197.052 E36.592
G1 X109.341 Y197.106 E36.67687
G1 X106.835 Y197.23 E36.76032
G1 X104.335 Y197.424 E36.84372
G1 X101.789 Y197.694 E36.92887
G1 X99.3 Y198.03 E37.01241
G1 X96.784 Y198.442 E37.09721
G1 X94.316 Y198.918 E37.18081
G1 X91.849 Y199.467 E37.26487
G1 X89.413 Y200.082 E37.34843
G1 X86.96 Y200.775 E37.43321
G1 X84.482 Y201.553 E37.51959
G1 X83.953 Y201.727 E37.53812
G1 X83.677 Y201.813 E37.54773
G1 X83.326 Y201.918 E37.55992
G1 X83.031 Y202.002 E37.57012
G1 X64.053 Y207.087 E38.2236
G1 X63.221 Y207.298 E38.25214
G1 X62.319 Y207.485 E38.28278
G1 X61.405 Y207.593 E38.31339
G1 X60.485 Y207.621 E38.34401
G1 X59.902 Y207.598 E38.36341
G1 X58.987 Y207.496 E38.39403
G1 X58.083 Y207.316 E38.42469
G1 X57.5 Y207.171 E38.44467
G1 X38.383 Y202.047 E39.10295
G1 X37.737 Y201.864 E39.12528
G1 X36.863 Y201.575 E39.1559
G1 X36.017 Y201.211 E39.18653
G1 X35.206 Y200.775 E39.21716
G1 X34.436 Y200.27 E39.24778
G1 X33.713 Y199.7 E39.27841
G1 X33.351 Y199.374 E39.29461
G1 X33.102 Y199.139 E39.306
G1 X32.882 Y198.925 E39.3162
G1 X18.856 Y184.898 E39.97597
G1 X18.388 Y184.416 E39.99831
G1 X17.776 Y183.728 E40.02894
G1 X17.226 Y182.99 E40.05955
G1 X16.898 Y182.476 E40.07983
G1 X16.459 Y181.666 E40.11047
G1 X16.092 Y180.822 E40.14109
G1 X15.829 Y180.051 E40.16818
G1 X15.733 Y179.729 E40.17936
G1 X15.652 Y179.443 E40.18924
G1 X10.528 Y160.314 E40.8479
G1 X10.354 Y159.624 E40.87157
G1 X10.168 Y158.722 E40.9022
G1 X10.06 Y157.808 E40.93282
G1 X10.033 Y156.888 E40.96343
G1 X10.085 Y155.968 E40.99408
G1 X10.31 Y154.621 E41.0395
G1 X10.381 Y154.317 E41.04988
G1 X10.464 Y153.984 E41.0613
G1 X15.567 Y134.94 E41.71705
G1 X15.783 Y134.173 E41.74355
G1 X16.071 Y133.299 E41.77416
G1 X16.433 Y132.452 E41.80479
G1 X16.682 Y131.968 E41.8229
G1 X17.114 Y131.177 E41.85287
G1 X17.573 Y130.368 E41.88381
G1 X18.771 Y128.115 E41.96868
G1 X19.869 Y125.904 E42.05079
G1 X20.952 Y123.556 E42.13679
G1 X21.928 Y121.27 E42.21946
G1 X22.858 Y118.912 E42.30377
G1 X23.737 Y116.487 E42.38956
G1 X24.513 Y114.138 E42.47184
G1 X25.247 Y111.686 E42.55697
G1 X25.9 Y109.257 E42.64063
G1 X26.493 Y106.777 E42.72544
G1 X27.005 Y104.316 E42.80904
G1 X27.451 Y101.837 E42.89282
G1 X27.83 Y99.316 E42.97761
G1 X28.134 Y96.816 E43.06137
G1 X28.366 Y94.325 E43.14458
G1 X28.532 Y91.768 E43.22981
G1 X28.622 Y89.27 E43.31295
G1 X28.643 Y86.716 E43.3979
G1 X28.592 Y84.178 E43.48233
G1 X28.47 Y81.696 E43.56498
G1 X28.274 Y79.144 E43.65011
G1 X28.008 Y76.616 E43.73465
G1 X27.676 Y74.151 E43.81738
G1 X27.264 Y71.619 E43.9027
G1 X26.855 Y69.489 E43.97484
G1 X26.591 Y68.159 E44.01994
G1 X26.451 Y67.249 E44.05056
G1 X26.393 Y66.421 E44.07817
G1 X26.383 Y66.095 E44.08902
G1 X26.378 Y65.77 E44.09983
G1 X26.379 Y46.131 E44.75302
G1 X26.388 Y45.466 E44.77514
G1 X26.44 Y44.546 E44.80579
G1 X26.572 Y43.635 E44.83641
G1 X26.783 Y42.739 E44.86702
G1 X27.07 Y41.864 E44.89765
G1 X27.433 Y41.018 E44.92827
G1 X27.867 Y40.206 E44.95889
G1 X28.37 Y39.435 E44.98951
G1 X28.939 Y38.711 E45.02014
G1 X29.567 Y38.039 E45.05073
G1 X30.252 Y37.423 E45.08137
G0 F6000 X30.64 Y37.624
G1 F1200 X31.372 Y37.094 E45.11143
G1 X32.147 Y36.631 E45.14146
G1 X32.96 Y36.238 E45.17149
G1 X33.805 Y35.918 E45.20154
G1 X34.674 Y35.675 E45.23155
G1 X35.562 Y35.509 E45.2616
G1 X36.701 Y35.413 E45.29962
G1 X37.022 Y35.404 E45.3103
G1 X37.308 Y35.4 E45.31981
G1 X186.271 Y35.4 E50.27434
G1 X187.115 Y35.411 E50.30242
G1 X188.017 Y35.464 E50.33247
G1 X188.91 Y35.596 E50.36249
G1 X189.788 Y35.807 E50.39253
G1 X190.644 Y36.095 E50.42257
G1 X191.471 Y36.457 E50.45259
G1 X192.263 Y36.892 E50.48265
G1 X193.014 Y37.394 E50.51269
G1 X193.717 Y37.961 E50.54273
G1 X194.367 Y38.588 E50.57277
G1 X194.959 Y39.27 E50.6028
G1 X195.489 Y40.001 E50.63284
G1 X195.951 Y40.777 E50.66287
G1 X196.344 Y41.59 E50.69291
G1 X196.662 Y42.435 E50.72294
G1 X196.905 Y43.305 E50.75298
G1 X197.07 Y44.193 E50.78302
G1 X197.165 Y45.323 E50.82074
G1 X197.174 Y45.643 E50.83138
G1 X197.178 Y45.93 E50.84093
G1 X197.177 Y65.516 E51.49236
G1 X197.167 Y66.236 E51.51631
G1 X197.115 Y67.137 E51.54633
G1 X196.996 Y67.957 E51.57389
G1 X196.749 Y69.28 E51.61865
G1 X196.713 Y69.457 E51.62466
G1 X196.281 Y71.968 E51.7094
G1 X195.92 Y74.487 E51.79404
G1 X195.634 Y76.991 E51.87787
G1 X195.414 Y79.557 E51.96353
G1 X195.269 Y82.063 E52.04702
G1 X195.195 Y84.622 E52.13216
G1 X195.193 Y87.157 E52.21648
G1 X195.263 Y89.699 E52.30106
G1 X195.403 Y92.212 E52.38477
G1 X195.618 Y94.754 E52.46962
G1 X195.906 Y97.311 E52.5552
G1 X196.252 Y99.759 E52.63743
G1 X196.692 Y102.335 E52.72435
G1 X197.171 Y104.739 E52.80588
G1 X197.757 Y107.293 E52.89303
G1 X198.388 Y109.724 E52.97657
G1 X199.093 Y112.159 E53.06088
G1 X199.869 Y114.578 E53.14538
G1 X200.714 Y116.98 E53.23007
G1 X201.609 Y119.306 E53.31296
G1 X202.616 Y121.722 E53.40002
