;FLAVOR:Marlin
;TIME:19468
;Filament used: 18.8761m
;Layer height: 0.2
;MINX:12.743
;MINY:64.73
;MINZ:0.2
;MAXX:218.48
;MAXY:214.37
;MAXZ:22
;Generated with Creality Slicer 4.8.2-172
M140 S50
M105
M190 S50
M104 S200
M105
M109 S200
M82 ;absolute extrusion mode

G28 ;Home

G92 E0 ;Reset Extruder
G1 Z2.0 F3000 ;Move Z Axis up
G1 X10.1 Y20 Z0.28 F5000.0 ;Move to start position
G1 X10.1 Y200.0 Z0.28 F1500.0 E15 ;Draw the first line
G1 X10.4 Y200.0 Z0.28 F5000.0 ;Move to side a little
G1 X10.4 Y20 Z0.28 F1500.0 E30 ;Draw the second line
G92 E0 ;Reset Extruder
G1 Z2.0 F3000 ;Move Z Axis up

G92 E0
G92 E0
G1 F2700 E-5
;LAYER_COUNT:110
;LAYER:0
M107
G0 F6000 X32.428 Y65.82 Z0.2
;TYPE:SKIRT
G1 F2700 E0
G1 F1200 X33.29 Y65.451 E0.03119
G1 X34.181 Y65.157 E0.06239
G1 X35.093 Y64.939 E0.09358
G1 X36.02 Y64.801 E0.12475
G1 X36.874 Y64.743 E0.15322
G1 X37.194 Y64.734 E0.16387
G1 X37.503 Y64.73 E0.17415
G1 X186.466 Y64.73 E5.12868
G1 X187.322 Y64.741 E5.15715
G1 X188.258 Y64.795 E5.18833
G1 X189.186 Y64.927 E5.21951
G1 X190.1 Y65.139 E5.25072
G1 X190.992 Y65.428 E5.2819
G1 X191.857 Y65.791 E5.3131
G1 X192.687 Y66.227 E5.34429
G1 X193.478 Y66.732 E5.3755
G1 X194.222 Y67.303 E5.40669
G1 X194.915 Y67.935 E5.43789
G1 X195.552 Y68.623 E5.46907
G1 X196.127 Y69.364 E5.50027
G1 X196.638 Y70.15 E5.53145
G1 X197.08 Y70.978 E5.56267
G1 X197.449 Y71.84 E5.59385
G1 X197.744 Y72.73 E5.62504
G1 X197.962 Y73.642 E5.65623
G1 X198.102 Y74.57 E5.68744
G1 X198.16 Y75.431 E5.71614
G1 X198.169 Y75.751 E5.72679
G1 X198.173 Y76.06 E5.73707
G1 X198.173 Y90.696 E6.22387
G1 X198.21 Y93.304 E6.31062
G1 X198.317 Y95.825 E6.39454
G1 X198.494 Y98.32 E6.47773
G1 X198.742 Y100.82 E6.56129
G1 X199.061 Y103.313 E6.64489
G1 X199.452 Y105.806 E6.72882
G1 X199.915 Y108.296 E6.81305
G1 X200.445 Y110.76 E6.89688
G1 X201.034 Y113.162 E6.97914
G1 X201.71 Y115.618 E7.06386
G1 X202.448 Y118.028 E7.14769
G1 X203.255 Y120.42 E7.23166
G1 X204.118 Y122.76 E7.31461
G1 X205.064 Y125.116 E7.39905
G1 X206.064 Y127.414 E7.48241
G1 X207.133 Y129.695 E7.56619
G1 X208.276 Y131.965 E7.65072
G1 X209.445 Y134.129 E7.73253
G1 X211.128 Y137.023 E7.84388
G1 X211.539 Y137.702 E7.87028
G1 X211.99 Y138.525 E7.90149
G1 X212.368 Y139.383 E7.93267
G1 X212.666 Y140.249 E7.96314
G1 X212.762 Y140.571 E7.97431
G1 X212.846 Y140.867 E7.98454
G1 X217.969 Y159.992 E8.64307
G1 X218.143 Y160.679 E8.66664
G1 X218.335 Y161.597 E8.69784
G1 X218.447 Y162.529 E8.72906
G1 X218.48 Y163.466 E8.76024
G1 X218.455 Y164.127 E8.78224
G1 X218.352 Y165.059 E8.81343
G1 X218.163 Y166.014 E8.84581
G1 X218.075 Y166.373 E8.8581
G1 X218.016 Y166.601 E8.86594
G1 X212.905 Y185.675 E9.52272
G1 X212.707 Y186.374 E9.54688
G1 X212.413 Y187.265 E9.57809
G1 X212.044 Y188.127 E9.60928
G1 X211.603 Y188.955 E9.64048
G1 X211.094 Y189.742 E9.67165
G1 X210.519 Y190.483 E9.70285
G1 X210.123 Y190.926 E9.72261
G1 X209.888 Y191.175 E9.734
G1 X209.666 Y191.403 E9.74458
G1 X195.645 Y205.423 E10.40406
G1 X195.155 Y205.899 E10.42678
G1 X194.455 Y206.523 E10.45797
G1 X193.704 Y207.086 E10.48919
G1 X193.139 Y207.447 E10.51149
G1 X192.315 Y207.895 E10.54269
G1 X191.456 Y208.271 E10.57387
G1 X190.623 Y208.556 E10.60316
G1 X190.301 Y208.652 E10.61433
G1 X190.005 Y208.736 E10.62457
G1 X170.877 Y213.86 E11.2832
G1 X170.189 Y214.034 E11.3068
G1 X169.271 Y214.225 E11.33799
G1 X168.34 Y214.337 E11.36918
G1 X167.402 Y214.37 E11.40039
G1 X166.745 Y214.345 E11.42226
G1 X165.813 Y214.242 E11.45345
G1 X164.858 Y214.053 E11.48583
G1 X164.495 Y213.964 E11.49826
G1 X164.267 Y213.905 E11.50609
G1 X145.15 Y208.781 E12.16437
G1 X144.506 Y208.599 E12.18663
G1 X144.205 Y208.509 E12.19708
G1 X143.241 Y208.206 E12.23069
G1 X142.214 Y207.868 E12.26665
G1 X139.814 Y207.153 E12.34994
G1 X137.413 Y206.51 E12.43261
G1 X134.937 Y205.923 E12.51725
G1 X132.444 Y205.404 E12.60194
G1 X129.982 Y204.966 E12.68511
G1 X127.511 Y204.597 E12.76821
G1 X125.017 Y204.297 E12.85176
G1 X122.494 Y204.065 E12.93603
G1 X119.977 Y203.905 E13.01991
G1 X117.49 Y203.818 E13.10268
G1 X114.931 Y203.801 E13.1878
G1 X112.47 Y203.854 E13.26967
G1 X109.893 Y203.982 E13.35548
G1 X107.432 Y204.175 E13.43759
G1 X104.9 Y204.445 E13.52228
G1 X102.43 Y204.78 E13.60519
G1 X99.919 Y205.191 E13.68981
G1 X97.475 Y205.665 E13.77262
G1 X95.015 Y206.214 E13.85645
G1 X92.57 Y206.831 E13.94032
G1 X90.146 Y207.518 E14.02412
G1 X87.696 Y208.288 E14.10953
G1 X87.189 Y208.455 E14.12729
G1 X86.903 Y208.545 E14.13726
G1 X86.552 Y208.65 E14.14945
G1 X86.246 Y208.736 E14.16002
G1 X67.118 Y213.86 E14.81865
G1 X66.43 Y214.034 E14.84225
G1 X65.512 Y214.225 E14.87344
G1 X64.581 Y214.337 E14.90463
G1 X63.643 Y214.37 E14.93585
G1 X62.986 Y214.345 E14.95771
G1 X62.054 Y214.242 E14.9889
G1 X61.099 Y214.053 E15.02128
G1 X60.736 Y213.964 E15.03371
G1 X60.508 Y213.905 E15.04154
G1 X41.385 Y208.78 E15.70002
G1 X40.739 Y208.597 E15.72235
G1 X39.848 Y208.303 E15.75356
G1 X38.986 Y207.934 E15.78475
G1 X38.158 Y207.493 E15.81595
G1 X37.371 Y206.984 E15.84712
G1 X36.63 Y206.409 E15.87832
G1 X36.187 Y206.013 E15.89808
G1 X35.938 Y205.778 E15.90947
G1 X35.71 Y205.556 E15.92005
G1 X21.68 Y191.525 E16.58
G1 X21.212 Y191.043 E16.60235
G1 X20.588 Y190.343 E16.63354
G1 X20.026 Y189.592 E16.66474
G1 X19.666 Y189.029 E16.68696
G1 X19.218 Y188.205 E16.71816
G1 X18.842 Y187.346 E16.74935
G1 X18.557 Y186.513 E16.77863
G1 X18.461 Y186.191 E16.7898
G1 X18.377 Y185.895 E16.80004
G1 X13.251 Y166.76 E17.45891
G1 X13.077 Y166.07 E17.48258
G1 X12.887 Y165.151 E17.51379
G1 X12.775 Y164.22 E17.54498
G1 X12.743 Y163.283 E17.57616
G1 X12.792 Y162.346 E17.60737
G1 X12.92 Y161.417 E17.63856
G1 X13.031 Y160.878 E17.65686
G1 X13.102 Y160.574 E17.66725
G1 X13.189 Y160.229 E17.67908
G1 X18.333 Y141.036 E18.33997
G1 X18.513 Y140.4 E18.36196
G1 X18.917 Y139.23 E18.40313
G1 X19.215 Y138.502 E18.42929
G1 X19.78 Y137.175 E18.47726
G1 X20.7 Y134.839 E18.56076
G1 X21.559 Y132.46 E18.64489
G1 X22.351 Y130.056 E18.72908
G1 X23.065 Y127.665 E18.81207
G1 X23.711 Y125.254 E18.89509
G1 X24.304 Y122.754 E18.98055
G1 X24.813 Y120.314 E19.06345
G1 X25.252 Y117.852 E19.14663
G1 X25.631 Y115.326 E19.23158
G1 X25.931 Y112.845 E19.3147
G1 X26.159 Y110.372 E19.3973
G1 X26.322 Y107.82 E19.48236
G1 X26.41 Y105.333 E19.56512
G1 X26.429 Y102.806 E19.64918
G1 X26.375 Y100.274 E19.73341
G1 X26.272 Y98.173 E19.80337
G1 X26.271 Y98.089 E19.80617
G1 X26.2 Y96.857 E19.84721
G1 X26.186 Y96.53 E19.8581
G1 X26.177 Y96.211 E19.86871
G1 X26.173 Y95.901 E19.87902
G1 X26.174 Y76.239 E20.53298
G1 X26.184 Y75.574 E20.5551
G1 X26.238 Y74.637 E20.58632
G1 X26.372 Y73.709 E20.61751
G1 X26.584 Y72.795 E20.64871
G1 X26.873 Y71.903 E20.6799
G1 X27.238 Y71.039 E20.7111
G1 X27.674 Y70.209 E20.74228
G1 X28.18 Y69.419 E20.77348
G1 X28.751 Y68.675 E20.80467
G1 X29.383 Y67.982 E20.83587
G1 X30.072 Y67.346 E20.86706
G1 X30.813 Y66.771 E20.89825
G1 X31.6 Y66.261 E20.92944
G1 X32.428 Y65.82 E20.96065
G0 F6000 X32.8 Y66.088
G1 F1200 X33.654 Y65.744 E20.99127
G1 X34.534 Y65.475 E21.02187
G1 X35.435 Y65.284 E21.05251
G1 X36.349 Y65.172 E21.08313
G1 X36.885 Y65.143 E21.10099
G1 X37.205 Y65.134 E21.11163
G1 X37.503 Y65.13 E21.12155
G1 X186.466 Y65.13 E26.07608
G1 X187.316 Y65.141 E26.10435
G1 X188.235 Y65.194 E26.13497
G1 X189.146 Y65.327 E26.16559
G1 X190.042 Y65.538 E26.1962
G1 X190.916 Y65.826 E26.22681
G1 X191.763 Y66.189 E26.25746
G1 X192.574 Y66.624 E26.28807
G1 X193.344 Y67.128 E26.31868
G1 X194.068 Y67.697 E26.34931
G1 X194.74 Y68.327 E26.37994
G1 X195.355 Y69.012 E26.41056
G1 X195.908 Y69.748 E26.44118
G1 X196.395 Y70.529 E26.47179
G1 X196.812 Y71.35 E26.50242
G1 X197.157 Y72.204 E26.53305
G1 X197.426 Y73.084 E26.56366
G1 X197.618 Y73.985 E26.5943
G1 X197.731 Y74.898 E26.6249
G1 X197.76 Y75.442 E26.64302
G1 X197.769 Y75.762 E26.65367
G1 X197.773 Y76.06 E26.66358
G1 X197.773 Y90.702 E27.15057
G1 X197.81 Y93.327 E27.23789
G1 X197.917 Y95.835 E27.32138
G1 X198.095 Y98.355 E27.40541
G1 X198.344 Y100.87 E27.48946
G1 X198.663 Y103.359 E27.57293
G1 X199.064 Y105.911 E27.65885
G1 X199.516 Y108.342 E27.74109
G1 X200.052 Y110.834 E27.82587
G1 X200.654 Y113.291 E27.91
G1 X201.327 Y115.736 E27.99435
G1 X202.062 Y118.136 E28.07783
G1 X202.874 Y120.545 E28.16239
G1 X203.743 Y122.9 E28.24588
G1 X204.702 Y125.288 E28.33147
G1 X205.693 Y127.565 E28.41406
G1 X206.785 Y129.894 E28.49962
G1 X207.91 Y132.129 E28.58284
G1 X209.098 Y134.329 E28.666
G1 X210.766 Y137.196 E28.77632
G1 X211.197 Y137.909 E28.80403
G1 X211.638 Y138.717 E28.83465
G1 X212.008 Y139.56 E28.86527
G1 X212.283 Y140.363 E28.8935
G1 X212.379 Y140.685 E28.90467
G1 X212.46 Y140.971 E28.91456
G1 X217.582 Y160.09 E29.57289
G1 X217.756 Y160.777 E29.59646
G1 X217.943 Y161.679 E29.62709
G1 X218.051 Y162.593 E29.65771
G1 X218.079 Y163.513 E29.68832
G1 X218.056 Y164.1 E29.70786
G1 X217.954 Y165.015 E29.73848
G1 X217.774 Y165.919 E29.76914
G1 X217.63 Y166.497 E29.78895
G1 X212.52 Y185.566 E30.44556
G1 X212.322 Y186.265 E30.46973
G1 X212.033 Y187.139 E30.50035
G1 X211.669 Y187.985 E30.53098
G1 X211.233 Y188.796 E30.5616
G1 X210.728 Y189.566 E30.59223
G1 X210.159 Y190.289 E30.62283
G1 X209.832 Y190.651 E30.63906
G1 X209.597 Y190.9 E30.65044
G1 X209.383 Y191.12 E30.66065
G1 X195.366 Y205.136 E31.31994
G1 X194.876 Y205.612 E31.34267
G1 X194.188 Y206.224 E31.37329
G1 X193.45 Y206.775 E31.40392
G1 X192.934 Y207.104 E31.42428
G1 X192.124 Y207.543 E31.45492
G1 X191.28 Y207.91 E31.48553
G1 X190.509 Y208.173 E31.51263
G1 X190.187 Y208.269 E31.5238
G1 X189.901 Y208.35 E31.53369
G1 X170.923 Y213.435 E32.18716
G1 X170.091 Y213.646 E32.21571
G1 X169.189 Y213.833 E32.24635
G1 X168.275 Y213.941 E32.27696
G1 X167.355 Y213.969 E32.30758
G1 X166.772 Y213.946 E32.32698
G1 X165.857 Y213.844 E32.3576
G1 X164.953 Y213.664 E32.38826
G1 X164.37 Y213.519 E32.40824
G1 X145.398 Y208.435 E33.06152
G1 X144.615 Y208.214 E33.08858
G1 X144.324 Y208.128 E33.09867
G1 X143.366 Y207.826 E33.13208
G1 X142.348 Y207.491 E33.16772
G1 X139.926 Y206.769 E33.25178
G1 X137.469 Y206.112 E33.33637
G1 X135.039 Y205.535 E33.41944
G1 X132.523 Y205.012 E33.50492
G1 X130.075 Y204.576 E33.58762
G1 X127.547 Y204.199 E33.67263
G1 X125.031 Y203.896 E33.75692
G1 X122.558 Y203.668 E33.83952
G1 X120.015 Y203.507 E33.92427
G1 X117.472 Y203.418 E34.0089
G1 X114.961 Y203.401 E34.09242
G1 X112.405 Y203.456 E34.17745
G1 X109.912 Y203.58 E34.26047
G1 X107.355 Y203.78 E34.34578
G1 X104.875 Y204.045 E34.42873
G1 X102.347 Y204.387 E34.51358
G1 X99.884 Y204.792 E34.5966
G1 X97.349 Y205.283 E34.68248
G1 X94.936 Y205.821 E34.76471
G1 X92.459 Y206.446 E34.84967
G1 X90.031 Y207.135 E34.93362
G1 X87.599 Y207.899 E35.0184
G1 X87.064 Y208.075 E35.03714
G1 X86.788 Y208.161 E35.04675
G1 X86.437 Y208.266 E35.05894
G1 X86.142 Y208.35 E35.06914
G1 X67.164 Y213.435 E35.72262
G1 X66.332 Y213.646 E35.75116
G1 X65.43 Y213.833 E35.7818
G1 X64.516 Y213.941 E35.81241
G1 X63.596 Y213.969 E35.84303
G1 X63.013 Y213.946 E35.86243
G1 X62.098 Y213.844 E35.89305
G1 X61.194 Y213.664 E35.92371
G1 X60.611 Y213.519 E35.94369
G1 X41.494 Y208.395 E36.60197
G1 X40.848 Y208.212 E36.6243
G1 X39.974 Y207.923 E36.65492
G1 X39.128 Y207.559 E36.68555
G1 X38.317 Y207.123 E36.71618
G1 X37.547 Y206.618 E36.7468
G1 X36.824 Y206.048 E36.77743
G1 X36.462 Y205.722 E36.79363
G1 X36.213 Y205.487 E36.80502
G1 X35.993 Y205.273 E36.81522
G1 X21.967 Y191.246 E37.47499
G1 X21.499 Y190.764 E37.49733
G1 X20.887 Y190.076 E37.52796
G1 X20.337 Y189.338 E37.55857
G1 X20.009 Y188.824 E37.57885
G1 X19.57 Y188.014 E37.60949
G1 X19.203 Y187.17 E37.6401
G1 X18.94 Y186.399 E37.6672
G1 X18.844 Y186.077 E37.67837
G1 X18.763 Y185.791 E37.68826
G1 X13.639 Y166.662 E38.34692
G1 X13.465 Y165.972 E38.37059
G1 X13.279 Y165.07 E38.40122
G1 X13.171 Y164.156 E38.43184
G1 X13.144 Y163.236 E38.46245
G1 X13.196 Y162.316 E38.4931
G1 X13.421 Y160.969 E38.53852
G1 X13.492 Y160.665 E38.5489
G1 X13.575 Y160.332 E38.56032
G1 X18.678 Y141.288 E39.21607
G1 X18.898 Y140.509 E39.24299
G1 X19.287 Y139.381 E39.28268
G1 X19.583 Y138.659 E39.30863
G1 X20.166 Y137.29 E39.35812
G1 X21.073 Y134.985 E39.44051
G1 X21.929 Y132.615 E39.52432
G1 X22.731 Y130.181 E39.60955
G1 X23.448 Y127.778 E39.69296
G1 X24.108 Y125.316 E39.77774
G1 X24.692 Y122.857 E39.8618
G1 X25.204 Y120.401 E39.94524
G1 X25.649 Y117.904 E40.0296
G1 X26.024 Y115.402 E40.11375
G1 X26.327 Y112.897 E40.19767
G1 X26.558 Y110.398 E40.28114
G1 X26.722 Y107.823 E40.36696
G1 X26.81 Y105.35 E40.44927
G1 X26.829 Y102.8 E40.53408
G1 X26.775 Y100.245 E40.61908
G1 X26.672 Y98.153 E40.68874
G1 X26.672 Y98.068 E40.69157
G1 X26.6 Y96.834 E40.73268
G1 X26.586 Y96.519 E40.74317
G1 X26.577 Y96.2 E40.75379
G1 X26.573 Y95.901 E40.76373
G1 X26.574 Y76.245 E41.41749
G1 X26.584 Y75.58 E41.43961
G1 X26.638 Y74.661 E41.47023
G1 X26.771 Y73.75 E41.50085
G1 X26.983 Y72.854 E41.53148
G1 X27.272 Y71.979 E41.56213
G1 X27.636 Y71.134 E41.59273
G1 X28.071 Y70.323 E41.62334
G1 X28.576 Y69.552 E41.65399
G1 X29.145 Y68.829 E41.68459
G1 X29.775 Y68.157 E41.71523
G1 X30.461 Y67.543 E41.74585
G1 X31.197 Y66.991 E41.77645
G1 X31.979 Y66.504 E41.80709
G1 X32.8 Y66.088 E41.8377
G0 F6000 X33.17 Y66.362
G1 F1200 X34.015 Y66.043 E41.86774
G1 X34.885 Y65.801 E41.89778
G1 X35.773 Y65.637 E41.92781
G1 X36.896 Y65.543 E41.96529
G1 X37.216 Y65.534 E41.97594
G1 X37.503 Y65.53 E41.98549
G1 X186.466 Y65.53 E46.94002
G1 X187.31 Y65.541 E46.96809
G1 X188.212 Y65.594 E46.99814
G1 X189.105 Y65.726 E47.02817
G1 X189.983 Y65.937 E47.0582
G1 X190.839 Y66.225 E47.08824
G1 X191.666 Y66.587 E47.11827
G1 X192.458 Y67.022 E47.14832
G1 X193.209 Y67.524 E47.17837
G1 X193.912 Y68.091 E47.2084
G1 X194.562 Y68.718 E47.23844
G1 X195.154 Y69.4 E47.26848
G1 X195.684 Y70.131 E47.29851
G1 X196.146 Y70.907 E47.32855
G1 X196.539 Y71.72 E47.35858
G1 X196.857 Y72.565 E47.38861
G1 X197.1 Y73.435 E47.41866
G1 X197.265 Y74.323 E47.4487
G1 X197.36 Y75.453 E47.48641
G1 X197.369 Y75.773 E47.49706
G1 X197.373 Y76.06 E47.50661
G1 X197.373 Y90.695 E47.99337
G1 X197.41 Y93.314 E48.08049
G1 X197.519 Y95.879 E48.16588
G1 X197.697 Y98.386 E48.24947
G1 X197.948 Y100.927 E48.33439
G1 X198.269 Y103.435 E48.41849
G1 X198.663 Y105.94 E48.50283
G1 X199.125 Y108.427 E48.58696
G1 X199.666 Y110.941 E48.67249
G1 X200.265 Y113.387 E48.75625
G1 X200.938 Y115.831 E48.84057
G1 X201.683 Y118.266 E48.92526
G1 X202.494 Y120.668 E49.00958
G1 X203.384 Y123.081 E49.09512
G1 X204.31 Y125.388 E49.17781
G1 X205.335 Y127.743 E49.26323
G1 X206.423 Y130.065 E49.34852
G1 X207.552 Y132.307 E49.43201
G1 X208.765 Y134.553 E49.51691
G1 X210.427 Y137.41 E49.62684
G1 X210.854 Y138.116 E49.65428
G1 X211.287 Y138.909 E49.68434
G1 X211.648 Y139.737 E49.71438
G1 X211.9 Y140.478 E49.74041
G1 X211.996 Y140.8 E49.75159
G1 X212.073 Y141.074 E49.76105
G1 X217.194 Y160.189 E50.41924
G1 X217.368 Y160.876 E50.44281
G1 X217.551 Y161.76 E50.47284
G1 X217.654 Y162.657 E50.50287
G1 X217.678 Y163.56 E50.53291
G1 X217.656 Y164.073 E50.54999
G1 X217.557 Y164.971 E50.58004
G1 X217.386 Y165.823 E50.60894
G1 X217.298 Y166.182 E50.62123
G1 X217.243 Y166.394 E50.62852
G1 X212.135 Y185.457 E51.28492
G1 X211.937 Y186.156 E51.30909
G1 X211.653 Y187.013 E51.33912
G1 X211.293 Y187.842 E51.36918
G1 X210.863 Y188.635 E51.39918
G1 X210.363 Y189.388 E51.42924
G1 X209.541 Y190.377 E51.47202
G1 X209.306 Y190.626 E51.4834
G1 X209.1 Y190.837 E51.49321
G1 X195.087 Y204.849 E52.15232
G1 X194.597 Y205.325 E52.17504
G1 X193.922 Y205.925 E52.20508
G1 X193.197 Y206.463 E52.2351
G1 X192.728 Y206.761 E52.25358
G1 X191.934 Y207.191 E52.28362
G1 X191.105 Y207.549 E52.31365
G1 X190.394 Y207.79 E52.33862
G1 X190.072 Y207.886 E52.3498
G1 X189.798 Y207.963 E52.35926
G1 X170.681 Y213.085 E53.01752
G1 X169.993 Y213.259 E53.04113
G1 X169.108 Y213.441 E53.07118
G1 X168.211 Y213.545 E53.10121
G1 X167.308 Y213.568 E53.13126
G1 X166.799 Y213.546 E53.1482
G1 X165.901 Y213.447 E53.17825
G1 X165.048 Y213.276 E53.20718
G1 X164.685 Y213.187 E53.21962
G1 X164.474 Y213.132 E53.22687
G1 X145.368 Y208.012 E53.88476
G1 X144.724 Y207.83 E53.90702
G1 X144.444 Y207.746 E53.91674
G1 X143.491 Y207.446 E53.94997
G1 X142.473 Y207.111 E53.98561
G1 X140.048 Y206.388 E54.06978
G1 X137.559 Y205.722 E54.15548
G1 X135.106 Y205.14 E54.23933
