;FLAVOR:Marlin
;TIME:6552
;Filament used: 8.18864m
;Layer height: 0.2
;MINX:100.504
;MINY:26.5
;MINZ:0.2
;MAXX:143.004
;MAXY:198.5
;MAXZ:12
;Generated with Creality Slicer 4.8.2-172
M140 S50
M105
M190 S50
M104 S200
M105
M109 S200
M82 ;absolute extrusion mode

G28 ;Home

G92 E0 ;Reset Extruder
G1 Z2.0 F3000 ;Move Z Axis up
G1 X10.1 Y20 Z0.28 F5000.0 ;Move to start position
G1 X10.1 Y200.0 Z0.28 F1500.0 E15 ;Draw the first line
G1 X10.4 Y200.0 Z0.28 F5000.0 ;Move to side a little
G1 X10.4 Y20 Z0.28 F1500.0 E30 ;Draw the second line
G92 E0 ;Reset Extruder
G1 Z2.0 F3000 ;Move Z Axis up

G92 E0
G92 E0
G1 F2700 E-5
;LAYER_COUNT:60
;LAYER:0
M107
G0 F6000 X101.198 Y33.689 Z0.2
;TYPE:SKIRT
G1 F2700 E0
G1 F1200 X101.561 Y32.824 E0.0312
G1 X101.996 Y31.993 E0.0624
G1 X102.5 Y31.203 E0.09356
G1 X103.07 Y30.458 E0.12476
G1 X103.702 Y29.764 E0.15598
G1 X104.39 Y29.127 E0.18717
G1 X105.13 Y28.551 E0.21836
G1 X105.916 Y28.039 E0.24956
G1 X106.743 Y27.597 E0.28075
G1 X107.605 Y27.227 E0.31195
G1 X108.495 Y26.931 E0.34314
G1 X109.407 Y26.713 E0.37433
G1 X110.334 Y26.572 E0.40552
G1 X111.205 Y26.513 E0.43455
G1 X111.526 Y26.504 E0.44523
G1 X111.834 Y26.5 E0.45548
G1 X131.297 Y26.5 E1.10282
G1 X132.153 Y26.511 E1.13129
G1 X133.089 Y26.565 E1.16248
G1 X134.017 Y26.697 E1.19365
G1 X134.931 Y26.909 E1.22486
G1 X135.823 Y27.198 E1.25605
G1 X136.688 Y27.561 E1.28725
G1 X137.518 Y27.997 E1.31843
G1 X138.309 Y28.502 E1.34964
G1 X139.053 Y29.073 E1.38084
G1 X139.746 Y29.705 E1.41203
G1 X140.383 Y30.393 E1.44322
G1 X140.958 Y31.134 E1.47441
G1 X141.469 Y31.92 E1.50559
G1 X141.911 Y32.748 E1.53681
G1 X142.28 Y33.61 E1.568
G1 X142.575 Y34.5 E1.59918
G1 X142.793 Y35.412 E1.63037
G1 X142.933 Y36.34 E1.66159
G1 X142.991 Y37.201 E1.69029
G1 X143 Y37.521 E1.70093
G1 X143.004 Y37.83 E1.71121
G1 X143.003 Y186.9 E6.6693
G1 X142.994 Y187.627 E6.69348
G1 X142.943 Y188.564 E6.72469
G1 X142.811 Y189.492 E6.75587
G1 X142.602 Y190.406 E6.78705
G1 X142.315 Y191.299 E6.81825
G1 X141.953 Y192.165 E6.84947
G1 X141.519 Y192.996 E6.88065
G1 X141.015 Y193.787 E6.91185
G1 X140.446 Y194.532 E6.94303
G1 X139.815 Y195.227 E6.97425
G1 X139.128 Y195.865 E7.00543
G1 X138.389 Y196.442 E7.03662
G1 X137.603 Y196.954 E7.06782
G1 X136.777 Y197.397 E7.09899
G1 X135.915 Y197.769 E7.13022
G1 X135.026 Y198.065 E7.16138
G1 X134.114 Y198.285 E7.19258
G1 X133.187 Y198.426 E7.22377
G1 X132.303 Y198.487 E7.25324
G1 X131.982 Y198.496 E7.26392
G1 X131.674 Y198.5 E7.27417
G1 X112.069 Y198.499 E7.92623
G1 X111.371 Y198.49 E7.94945
G1 X110.435 Y198.438 E7.98063
G1 X109.506 Y198.306 E8.01184
G1 X108.592 Y198.096 E8.04303
G1 X107.699 Y197.809 E8.07423
G1 X106.834 Y197.446 E8.10543
G1 X106.003 Y197.012 E8.13661
G1 X105.212 Y196.508 E8.16781
G1 X104.467 Y195.938 E8.19901
G1 X103.773 Y195.307 E8.2302
G1 X103.136 Y194.62 E8.26136
G1 X102.559 Y193.88 E8.29257
G1 X102.047 Y193.094 E8.32377
G1 X101.604 Y192.267 E8.35498
G1 X101.233 Y191.406 E8.38616
G1 X100.937 Y190.516 E8.41736
G1 X100.718 Y189.604 E8.44855
G1 X100.577 Y188.677 E8.47974
G1 X100.517 Y187.788 E8.50937
G1 X100.508 Y187.455 E8.52045
G1 X100.504 Y187.158 E8.53033
G1 X100.505 Y38.025 E13.49052
G1 X100.514 Y37.36 E13.51264
G1 X100.567 Y36.424 E13.54382
G1 X100.699 Y35.495 E13.57503
G1 X100.91 Y34.581 E13.60623
G1 X101.198 Y33.689 E13.6374
G0 F6000 X101.596 Y33.764
G1 F1200 X101.959 Y32.918 E13.66802
G1 X102.393 Y32.106 E13.69864
G1 X102.896 Y31.335 E13.72926
G1 X103.465 Y30.611 E13.75989
G1 X104.093 Y29.939 E13.79048
G1 X104.778 Y29.323 E13.82112
G1 X105.514 Y28.77 E13.85174
G1 X106.295 Y28.282 E13.88237
G1 X107.115 Y27.864 E13.91298
G1 X107.969 Y27.519 E13.94362
G1 X108.849 Y27.249 E13.97423
G1 X109.749 Y27.057 E14.00484
G1 X110.663 Y26.943 E14.03548
G1 X111.216 Y26.913 E14.0539
G1 X111.537 Y26.904 E14.06458
G1 X111.834 Y26.9 E14.07445
G1 X131.297 Y26.9 E14.7218
G1 X132.147 Y26.911 E14.75007
G1 X133.066 Y26.964 E14.78069
G1 X133.977 Y27.097 E14.81131
G1 X134.873 Y27.308 E14.84192
G1 X135.747 Y27.596 E14.87253
G1 X136.594 Y27.959 E14.90318
G1 X137.405 Y28.394 E14.93379
G1 X138.175 Y28.898 E14.9644
G1 X138.899 Y29.467 E14.99503
G1 X139.571 Y30.097 E15.02566
G1 X140.186 Y30.782 E15.05628
G1 X140.739 Y31.518 E15.0869
G1 X141.226 Y32.299 E15.11751
G1 X141.643 Y33.12 E15.14814
G1 X141.988 Y33.974 E15.17877
G1 X142.257 Y34.854 E15.20938
G1 X142.449 Y35.755 E15.24002
G1 X142.562 Y36.668 E15.27062
G1 X142.591 Y37.212 E15.28874
G1 X142.6 Y37.532 E15.29939
G1 X142.604 Y37.83 E15.3093
G1 X142.603 Y186.895 E20.26722
G1 X142.594 Y187.622 E20.2914
G1 X142.543 Y188.541 E20.32202
G1 X142.412 Y189.453 E20.35266
G1 X142.202 Y190.349 E20.38327
G1 X141.916 Y191.224 E20.41389
G1 X141.555 Y192.071 E20.44451
G1 X141.121 Y192.883 E20.47513
G1 X140.619 Y193.655 E20.50576
G1 X140.051 Y194.38 E20.53639
G1 X139.423 Y195.053 E20.56701
G1 X138.739 Y195.669 E20.59762
G1 X138.004 Y196.223 E20.62824
G1 X137.224 Y196.712 E20.65886
G1 X136.404 Y197.131 E20.68948
G1 X135.551 Y197.477 E20.7201
G1 X134.671 Y197.748 E20.75073
G1 X133.771 Y197.941 E20.78134
G1 X132.857 Y198.056 E20.81198
G1 X132.292 Y198.087 E20.8308
G1 X131.971 Y198.096 E20.84148
G1 X131.674 Y198.1 E20.85136
G1 X112.074 Y198.099 E21.50326
G1 X111.376 Y198.09 E21.52648
G1 X110.457 Y198.038 E21.55709
G1 X109.546 Y197.907 E21.5877
G1 X108.65 Y197.697 E21.61831
G1 X107.775 Y197.41 E21.64894
G1 X106.928 Y197.048 E21.67958
G1 X106.116 Y196.614 E21.7102
G1 X105.345 Y196.112 E21.7408
G1 X104.62 Y195.544 E21.77143
G1 X103.947 Y194.915 E21.80207
G1 X103.332 Y194.231 E21.83266
G1 X102.778 Y193.496 E21.86328
G1 X102.29 Y192.715 E21.89391
G1 X101.871 Y191.895 E21.92453
G1 X101.525 Y191.042 E21.95515
G1 X101.255 Y190.162 E21.98577
G1 X101.062 Y189.261 E22.01641
G1 X100.948 Y188.348 E22.04702
G1 X100.917 Y187.777 E22.06603
G1 X100.908 Y187.444 E22.07711
G1 X100.904 Y187.158 E22.08663
G1 X100.905 Y38.031 E27.04661
G1 X100.914 Y37.366 E27.06873
G1 X100.966 Y36.446 E27.09938
G1 X101.098 Y35.535 E27.13
G1 X101.309 Y34.639 E27.16061
G1 X101.596 Y33.764 E27.19124
G0 F6000 X101.995 Y33.841
G1 F1200 X102.357 Y33.014 E27.22127
G1 X102.79 Y32.222 E27.25129
G1 X103.292 Y31.471 E27.28133
G1 X103.859 Y30.767 E27.3114
G1 X104.485 Y30.117 E27.34141
G1 X105.166 Y29.524 E27.37145
G1 X105.898 Y28.994 E27.40151
G1 X106.673 Y28.531 E27.43153
G1 X107.486 Y28.138 E27.46157
G1 X108.331 Y27.818 E27.49162
G1 X109.2 Y27.575 E27.52163
G1 X110.088 Y27.409 E27.55168
G1 X111.227 Y27.313 E27.58969
G1 X111.548 Y27.304 E27.60038
G1 X111.834 Y27.3 E27.60989
G1 X131.297 Y27.3 E28.25723
G1 X132.141 Y27.311 E28.2853
G1 X133.043 Y27.364 E28.31536
G1 X133.936 Y27.496 E28.34538
G1 X134.814 Y27.707 E28.37541
G1 X135.67 Y27.995 E28.40545
G1 X136.497 Y28.357 E28.43548
G1 X137.289 Y28.792 E28.46553
G1 X138.04 Y29.294 E28.49558
G1 X138.743 Y29.861 E28.52562
G1 X139.393 Y30.488 E28.55566
G1 X139.985 Y31.17 E28.58569
G1 X140.515 Y31.901 E28.61572
G1 X140.977 Y32.677 E28.64576
G1 X141.37 Y33.49 E28.6758
G1 X141.688 Y34.335 E28.70582
G1 X141.931 Y35.205 E28.73587
G1 X142.096 Y36.093 E28.76591
G1 X142.191 Y37.223 E28.80363
G1 X142.2 Y37.543 E28.81427
G1 X142.204 Y37.83 E28.82382
G1 X142.203 Y186.89 E33.78158
G1 X142.194 Y187.617 E33.80576
G1 X142.143 Y188.519 E33.83581
G1 X142.012 Y189.413 E33.86586
G1 X141.803 Y190.291 E33.89588
G1 X141.517 Y191.148 E33.92593
G1 X141.156 Y191.976 E33.95597
G1 X140.724 Y192.768 E33.98597
G1 X140.223 Y193.52 E34.01603
G1 X139.657 Y194.224 E34.04607
G1 X139.032 Y194.875 E34.07609
G1 X138.351 Y195.469 E34.10614
G1 X137.62 Y196 E34.1362
G1 X136.846 Y196.464 E34.16621
G1 X136.033 Y196.858 E34.19626
G1 X135.189 Y197.178 E34.22628
G1 X134.319 Y197.423 E34.25634
G1 X133.432 Y197.589 E34.28636
G1 X132.281 Y197.687 E34.32478
G1 X131.96 Y197.696 E34.33546
G1 X131.674 Y197.7 E34.34497
G1 X112.079 Y197.699 E34.9967
G1 X111.381 Y197.69 E35.01992
G1 X110.48 Y197.639 E35.04994
G1 X109.586 Y197.507 E35.07999
G1 X108.708 Y197.298 E35.11001
G1 X107.851 Y197.011 E35.14007
G1 X107.024 Y196.65 E35.17008
G1 X106.231 Y196.217 E35.20013
G1 X105.48 Y195.716 E35.23016
G1 X104.776 Y195.15 E35.26021
G1 X104.125 Y194.524 E35.29024
G1 X103.532 Y193.843 E35.32028
G1 X103.002 Y193.112 E35.35031
G1 X102.538 Y192.337 E35.38035
G1 X102.144 Y191.524 E35.4104
G1 X101.824 Y190.68 E35.44042
G1 X101.58 Y189.81 E35.47048
G1 X101.414 Y188.922 E35.50052
G1 X101.317 Y187.767 E35.53907
G1 X101.308 Y187.434 E35.55015
G1 X101.304 Y187.158 E35.55933
G1 X101.305 Y38.036 E40.51915
G1 X101.314 Y37.371 E40.54127
G1 X101.366 Y36.469 E40.57132
G1 X101.498 Y35.576 E40.60135
G1 X101.708 Y34.698 E40.63137
G1 X101.995 Y33.841 E40.66143
G1 F2700 E35.66143
;MESH:Scale Stand.stl
G0 F6000 X125.247 Y175.324
G0 X124.493 Y174.02
G0 X123.341 Y175.672
G0 X122.85 Y177.5
G0 X123.341 Y179.328
G0 X124.593 Y180.809
;TYPE:WALL-INNER
G1 F2700 E40.66143
G1 F1200 X126.504 Y181.321 E40.72723
G1 X128.414 Y180.809 E40.793
G1 X129.814 Y179.411 E40.85881
G1 X130.325 Y177.5 E40.9246
G1 X129.814 Y175.589 E40.99039
G1 X128.414 Y174.191 E41.0562
G1 X126.504 Y173.679 E41.12197
G1 X124.593 Y174.191 E41.18777
G1 X123.195 Y175.589 E41.25353
G1 X122.683 Y177.5 E41.31933
G1 X123.195 Y179.411 E41.38513
G1 X124.593 Y180.809 E41.45089
G0 F6000 X124.8 Y180.45
;TYPE:WALL-OUTER
G1 F1200 X126.504 Y180.907 E41.50957
G1 X128.207 Y180.45 E41.56821
G1 X129.455 Y179.204 E41.62687
G1 X129.911 Y177.5 E41.68554
G1 X129.455 Y175.796 E41.74421
G1 X128.207 Y174.55 E41.80286
G1 X126.504 Y174.093 E41.86151
G1 X124.8 Y174.55 E41.92019
G1 X123.554 Y175.796 E41.97879
G1 X123.097 Y177.5 E42.03747
G1 X123.554 Y179.204 E42.09615
G1 X124.8 Y180.45 E42.15476
G0 F6000 X124.58 Y180.831
G1 F2700 E37.15476
G0 F6000 X123.024 Y179.511
G0 X124.328 Y178.757
G0 X118.681 Y178.757
G0 X119.985 Y179.51
G0 X118.329 Y180.663
G0 X116.504 Y181.321
;TYPE:WALL-INNER
G1 F2700 E42.15476
G1 F1200 X118.414 Y180.809 E42.22053
G1 X119.814 Y179.411 E42.28633
G1 X120.325 Y177.5 E42.35213
G1 X119.814 Y175.589 E42.41792
G1 X118.414 Y174.191 E42.48372
G1 X116.504 Y173.679 E42.54949
G1 X114.593 Y174.191 E42.6153
G1 X113.195 Y175.589 E42.68105
G1 X112.683 Y177.5 E42.74686
G1 X113.195 Y179.411 E42.81266
G1 X114.593 Y180.809 E42.87841
G1 X116.504 Y181.321 E42.94422
G0 F6000 X116.504 Y180.907
;TYPE:WALL-OUTER
G1 F1200 X118.207 Y180.45 E43.00286
G1 X119.455 Y179.204 E43.06152
G1 X119.911 Y177.5 E43.12019
G1 X119.455 Y175.796 E43.17886
G1 X118.207 Y174.55 E43.23751
G1 X116.504 Y174.093 E43.29616
G1 X114.8 Y174.55 E43.35484
G1 X113.554 Y175.796 E43.41344
G1 X113.097 Y177.5 E43.47212
G1 X113.554 Y179.204 E43.5308
G1 X114.8 Y180.45 E43.58941
G1 X116.504 Y180.907 E43.64809
G0 F6000 X116.504 Y181.347
G1 F2700 E38.64809
G0 F6000 X114.493 Y180.98
G0 X112.314 Y180.98
G0 X112.104 Y186.9
;TYPE:WALL-INNER
G1 F2700 E43.64809
G1 F1200 X112.104 Y38.1 E48.59719
G1 X131.404 Y38.1 E49.23912
G1 X131.404 Y186.9 E54.18822
G1 X112.104 Y186.9 E54.83014
G0 F6000 X111.704 Y187.3
;TYPE:WALL-OUTER
G1 F1200 X111.704 Y37.7 E59.80586
G1 X131.804 Y37.7 E60.47439
G1 X131.804 Y187.3 E65.45011
G1 X111.704 Y187.3 E66.11863
G0 F6000 X111.974 Y187.03
G0 X112.214 Y186.51
G0 X112.494 Y186.51
;TYPE:SKIN
G1 F1200 X112.494 Y178.301 E66.39167
G1 X112.846 Y179.613 E66.43685
G1 X114.391 Y181.158 E66.50952
G1 X116.504 Y181.725 E66.58228
G1 X118.615 Y181.158 E66.65498
G1 X120.163 Y179.613 E66.72773
G1 X120.729 Y177.5 E66.80048
G1 X120.163 Y175.387 E66.87324
G1 X118.615 Y173.842 E66.94598
G1 X116.504 Y173.275 E67.01868
G1 X114.391 Y173.842 E67.09145
G1 X112.846 Y175.387 E67.16412
G1 X112.494 Y176.699 E67.2093
G1 X112.494 Y38.49 E71.80615
G1 X131.014 Y38.49 E72.42213
G1 X131.014 Y186.51 E77.34529
G1 X112.494 Y186.51 E77.96127
G1 F2700 E72.96127
G0 F6000 X112.214 Y186.51
G0 X123.097 Y186.69
G0 X123.097 Y188.165
G0 X125.247 Y179.676
G0 X124.493 Y180.98
G0 X123.097 Y179.471
G0 X122.846 Y179.613
G1 F2700 E77.96127
G1 F1200 X124.391 Y181.158 E78.03394
G1 X126.504 Y181.725 E78.10671
G1 X128.615 Y181.158 E78.17941
G1 X130.163 Y179.613 E78.25215
G1 X130.729 Y177.5 E78.32491
G1 X130.163 Y175.387 E78.39766
G1 X128.615 Y173.842 E78.47041
G1 X126.504 Y173.275 E78.54311
G1 X124.391 Y173.842 E78.61587
G1 X122.846 Y175.387 E78.68854
G1 X122.279 Y177.5 E78.76131
G1 X122.846 Y179.613 E78.83407
G1 F2700 E73.83407
G0 F6000 X123.097 Y179.471
G0 X124.328 Y178.757
G0 X123.024 Y188.165
G0 X123.024 Y186.69
G0 X112.809 Y186.79
G0 X112.809 Y186.348
G1 F2700 E78.83407
G1 F1200 X112.654 Y186.193 E78.84136
G0 F6000 X112.654 Y185.627
G1 F1200 X113.375 Y186.348 E78.87528
G0 F6000 X113.941 Y186.348
G1 F1200 X112.654 Y185.061 E78.93582
G0 F6000 X112.654 Y184.496
G1 F1200 X114.506 Y186.348 E79.02293
G0 F6000 X115.072 Y186.348
G1 F1200 X112.654 Y183.93 E79.13666
G0 F6000 X112.654 Y183.364
G1 F1200 X115.638 Y186.348 E79.27702
G0 F6000 X116.203 Y186.348
G1 F1200 X112.654 Y182.799 E79.44396
G0 F6000 X112.654 Y182.233
G1 F1200 X116.769 Y186.348 E79.63751
G0 F6000 X117.335 Y186.348
G1 F1200 X112.654 Y181.667 E79.85769
G0 F6000 X112.654 Y181.102
G1 F1200 X117.9 Y186.348 E80.10445
G0 F6000 X118.466 Y186.348
G1 F1200 X112.654 Y180.536 E80.37783
G0 F6000 X112.654 Y179.97
G1 F1200 X119.032 Y186.348 E80.67783
G0 F6000 X119.597 Y186.348
G1 F1200 X114.638 Y181.389 E80.91108
G0 F6000 X115.411 Y181.596
G1 F1200 X120.163 Y186.348 E81.1346
G0 F6000 X120.729 Y186.348
G1 F1200 X116.184 Y181.803 E81.34839
G0 F6000 X116.765 Y181.819
G1 F1200 X121.294 Y186.348 E81.56142
G0 F6000 X121.86 Y186.348
G1 F1200 X117.211 Y181.699 E81.78009
G0 F6000 X117.657 Y181.58
G1 F1200 X122.426 Y186.348 E82.00439
G0 F6000 X122.992 Y186.348
G1 F1200 X118.103 Y181.46 E82.23433
G0 F6000 X118.549 Y181.341
G1 F1200 X123.557 Y186.348 E82.46986
G0 F6000 X124.123 Y186.348
G1 F1200 X118.887 Y181.112 E82.71615
G0 F6000 X119.17 Y180.829
G1 F1200 X124.689 Y186.348 E82.97575
G0 F6000 X125.254 Y186.348
G1 F1200 X119.453 Y180.547 E83.24861
G0 F6000 X119.736 Y180.264
G1 F1200 X125.82 Y186.348 E83.53478
G0 F6000 X126.386 Y186.348
G1 F1200 X120.02 Y179.982 E83.83422
G0 F6000 X120.302 Y179.699
G1 F1200 X126.951 Y186.348 E84.14697
G0 F6000 X127.517 Y186.348
G1 F1200 X120.423 Y179.255 E84.48062
G0 F6000 X120.543 Y178.808
G1 F1200 X128.083 Y186.348 E84.83528
G0 F6000 X128.648 Y186.348
G1 F1200 X120.662 Y178.362 E85.21092
G0 F6000 X120.782 Y177.916
G1 F1200 X129.214 Y186.348 E85.60753
G0 F6000 X129.78 Y186.348
G1 F1200 X124.887 Y181.455 E85.83769
G0 F6000 X125.659 Y181.662
G1 F1200 X130.345 Y186.348 E86.0581
G0 F6000 X130.854 Y186.291
G1 F1200 X126.432 Y181.869 E86.2661
G0 F6000 X126.909 Y181.78
G1 F1200 X130.854 Y185.725 E86.45166
G0 F6000 X130.854 Y185.16
G1 F1200 X127.355 Y181.661 E86.61624
G0 F6000 X127.801 Y181.541
G1 F1200 X130.854 Y184.594 E86.75984
G0 F6000 X130.854 Y184.028
G1 F1200 X128.247 Y181.421 E86.88247
G0 F6000 X128.693 Y181.302
G1 F1200 X130.854 Y183.463 E86.98412
G0 F6000 X130.854 Y182.897
G1 F1200 X128.978 Y181.021 E87.07236
G0 F6000 X129.261 Y180.739
G1 F1200 X130.854 Y182.331 E87.14726
G0 F6000 X130.854 Y181.766
G1 F1200 X129.544 Y180.456 E87.20888
G0 F6000 X129.828 Y180.174
G1 F1200 X130.854 Y181.2 E87.25714
G0 F6000 X130.854 Y180.634
G1 F1200 X130.111 Y179.891 E87.29209
G0 F6000 X130.343 Y179.557
G1 F1200 X130.854 Y180.068 E87.31613
G0 F6000 X130.854 Y179.503
G1 F1200 X130.462 Y179.111 E87.33457
G0 F6000 X130.854 Y178.937
G1 F1200 X130.582 Y178.665 E87.34736
G0 F6000 X130.854 Y178.371
G1 F1200 X130.701 Y178.219 E87.35453
G1 F2700 E82.35453
G0 F6000 X130.278 Y178.106
G0 X130.366 Y176.921
G0 X131.194 Y176.921
G0 X131.294 Y176.674
G0 X130.854 Y176.674
G1 F2700 E87.35453
G1 F1200 X130.607 Y176.428 E87.36613
G0 F6000 X130.854 Y176.109
G1 F1200 X130.4 Y175.655 E87.38748
G0 F6000 X130.854 Y175.543
G1 F1200 X112.653 Y157.342 E88.2436
G0 F6000 X112.653 Y157.908
G1 F1200 X128.349 Y173.604 E88.98189
G0 F6000 X127.576 Y173.396
G1 F1200 X112.653 Y158.473 E89.68383
G0 F6000 X112.653 Y159.039
G1 F1200 X126.803 Y173.189 E90.3494
G0 F6000 X126.23 Y173.182
G1 F1200 X112.653 Y159.605 E90.98802
G0 F6000 X112.653 Y160.17
G1 F1200 X125.784 Y173.301 E91.60566
G0 F6000 X125.338 Y173.421
G1 F1200 X112.653 Y160.736 E92.20232
G0 F6000 X112.653 Y161.302
G1 F1200 X124.892 Y173.541 E92.77801
G0 F6000 X124.446 Y173.661
