;FLAVOR:Marlin
;TIME:11450
;Filament used: 9.63937m
;Layer height: 0.2
;MINX:9.632
;MINY:61.511
;MINZ:0.2
;MAXX:215.368
;MAXY:163.489
;MAXZ:22
;Generated with Creality Slicer 4.8.2-172
M140 S50
M105
M190 S50
M104 S200
M105
M109 S200
M82 ;absolute extrusion mode

G28 ;Home

G92 E0 ;Reset Extruder
G1 Z2.0 F3000 ;Move Z Axis up
G1 X10.1 Y20 Z0.28 F5000.0 ;Move to start position
G1 X10.1 Y200.0 Z0.28 F1500.0 E15 ;Draw the first line
G1 X10.4 Y200.0 Z0.28 F5000.0 ;Move to side a little
G1 X10.4 Y20 Z0.28 F1500.0 E30 ;Draw the second line
G92 E0 ;Reset Extruder
G1 Z2.0 F3000 ;Move Z Axis up

G92 E0
G92 E0
G1 F2700 E-5
;LAYER_COUNT:110
;LAYER:0
M107
G0 F6000 X35.186 Y68.306 Z0.2
;TYPE:SKIRT
G1 F2700 E0
G1 F1200 X36.021 Y67.878 E0.03121
G1 X36.888 Y67.522 E0.06238
G1 X37.471 Y67.33 E0.0828
G1 X37.802 Y67.231 E0.09429
G1 X38.107 Y67.145 E0.10483
G1 X57.232 Y62.022 E0.76335
G1 X57.919 Y61.848 E0.78692
G1 X58.837 Y61.656 E0.81812
G1 X59.769 Y61.544 E0.84934
G1 X60.706 Y61.511 E0.88052
G1 X62 Y61.598 E0.92366
G1 X63.182 Y61.812 E0.96361
G1 X63.472 Y61.881 E0.97353
G1 X63.773 Y61.957 E0.98385
G1 X82.962 Y67.1 E1.64461
G1 X83.606 Y67.282 E1.66686
G1 X83.911 Y67.373 E1.67745
G1 X84.837 Y67.665 E1.70974
G1 X85.837 Y67.994 E1.74476
G1 X88.252 Y68.716 E1.82859
G1 X90.651 Y69.358 E1.91119
G1 X93.132 Y69.949 E1.99602
G1 X95.635 Y70.471 E2.08106
G1 X98.063 Y70.904 E2.16309
G1 X100.539 Y71.275 E2.24636
G1 X103.073 Y71.582 E2.33126
G1 X105.552 Y71.811 E2.41406
G1 X108.085 Y71.973 E2.49848
G1 X110.583 Y72.062 E2.58162
G1 X113.102 Y72.081 E2.6654
G1 X115.631 Y72.027 E2.74954
G1 X118.148 Y71.903 E2.83336
G1 X120.663 Y71.708 E2.91726
G1 X123.152 Y71.443 E3.00051
G1 X125.654 Y71.106 E3.08448
G1 X128.107 Y70.704 E3.16715
G1 X130.593 Y70.225 E3.25136
G1 X133.071 Y69.673 E3.3358
G1 X135.494 Y69.062 E3.41891
G1 X137.919 Y68.376 E3.50273
G1 X140.401 Y67.597 E3.58925
G1 X140.922 Y67.426 E3.60749
G1 X141.208 Y67.336 E3.61746
G1 X141.559 Y67.231 E3.62965
G1 X141.865 Y67.145 E3.64022
G1 X160.993 Y62.021 E4.29885
G1 X161.681 Y61.847 E4.32245
G1 X162.599 Y61.656 E4.35364
G1 X163.53 Y61.544 E4.38483
G1 X164.468 Y61.511 E4.41605
G1 X165.758 Y61.598 E4.45905
G1 X166.94 Y61.812 E4.499
G1 X167.23 Y61.881 E4.50892
G1 X167.531 Y61.957 E4.51924
G1 X186.575 Y67.06 E5.17499
G1 X187.384 Y67.289 E5.20296
G1 X188.274 Y67.583 E5.23413
G1 X189.136 Y67.953 E5.26533
G1 X189.964 Y68.394 E5.29654
G1 X190.75 Y68.905 E5.32772
G1 X191.491 Y69.481 E5.35893
G1 X191.924 Y69.868 E5.37825
G1 X192.172 Y70.102 E5.38959
G1 X192.401 Y70.325 E5.40022
G1 X206.43 Y84.356 E6.06015
G1 X206.901 Y84.841 E6.08263
G1 X207.525 Y85.541 E6.11382
G1 X208.088 Y86.291 E6.14502
G1 X208.584 Y87.087 E6.17621
G1 X209.01 Y87.922 E6.20739
G1 X209.364 Y88.791 E6.2386
G1 X209.543 Y89.334 E6.25761
G1 X209.642 Y89.663 E6.26904
G1 X209.734 Y89.986 E6.28021
G1 X214.857 Y109.111 E6.93874
G1 X215.031 Y109.798 E6.96231
G1 X215.223 Y110.716 E6.9935
G1 X215.335 Y111.648 E7.02472
G1 X215.368 Y112.585 E7.05591
G1 X215.343 Y113.246 E7.07791
G1 X215.24 Y114.178 E7.10909
G1 X215.051 Y115.133 E7.14147
G1 X214.963 Y115.492 E7.15377
G1 X214.904 Y115.72 E7.1616
G1 X209.793 Y134.794 E7.81839
G1 X209.595 Y135.493 E7.84255
G1 X209.301 Y136.384 E7.87376
G1 X208.932 Y137.246 E7.90494
G1 X208.491 Y138.074 E7.93614
G1 X207.982 Y138.861 E7.96732
G1 X207.407 Y139.602 E7.99851
G1 X207.011 Y140.045 E8.01828
G1 X206.776 Y140.294 E8.02966
G1 X206.554 Y140.522 E8.04025
G1 X192.533 Y154.542 E8.69973
G1 X192.043 Y155.018 E8.72245
G1 X191.343 Y155.642 E8.75364
G1 X190.592 Y156.205 E8.78486
G1 X190.027 Y156.566 E8.80716
G1 X189.203 Y157.014 E8.83835
G1 X188.344 Y157.39 E8.86954
G1 X187.511 Y157.675 E8.89882
G1 X187.189 Y157.771 E8.91
G1 X186.893 Y157.855 E8.92023
G1 X167.765 Y162.979 E9.57886
G1 X167.077 Y163.153 E9.60247
G1 X166.159 Y163.344 E9.63365
G1 X165.228 Y163.456 E9.66484
G1 X164.29 Y163.489 E9.69606
G1 X163.633 Y163.464 E9.71793
G1 X162.701 Y163.361 E9.74911
G1 X161.746 Y163.172 E9.78149
G1 X161.383 Y163.083 E9.79393
G1 X161.155 Y163.024 E9.80176
G1 X142.038 Y157.9 E10.46004
G1 X141.394 Y157.718 E10.48229
G1 X141.089 Y157.627 E10.49288
G1 X140.163 Y157.335 E10.52517
G1 X139.163 Y157.006 E10.56019
G1 X136.748 Y156.284 E10.64402
G1 X134.349 Y155.642 E10.72662
G1 X131.868 Y155.051 E10.81145
G1 X129.365 Y154.529 E10.89649
G1 X126.937 Y154.096 E10.97852
G1 X124.461 Y153.725 E11.06179
G1 X121.927 Y153.418 E11.14669
G1 X119.448 Y153.189 E11.22949
G1 X116.915 Y153.027 E11.31391
G1 X114.417 Y152.938 E11.39705
G1 X111.898 Y152.919 E11.48083
G1 X109.369 Y152.973 E11.56497
G1 X106.852 Y153.097 E11.64879
G1 X104.337 Y153.292 E11.73269
G1 X101.848 Y153.557 E11.81594
G1 X99.346 Y153.894 E11.89991
G1 X96.893 Y154.296 E11.98258
G1 X94.407 Y154.775 E12.06679
G1 X91.929 Y155.327 E12.15123
G1 X89.506 Y155.938 E12.23434
G1 X87.081 Y156.624 E12.31816
G1 X84.599 Y157.403 E12.40468
G1 X84.078 Y157.574 E12.42292
G1 X83.792 Y157.664 E12.43289
G1 X83.441 Y157.769 E12.44508
G1 X83.135 Y157.855 E12.45565
G1 X64.007 Y162.979 E13.11428
G1 X63.319 Y163.153 E13.13788
G1 X62.401 Y163.344 E13.16907
G1 X61.47 Y163.456 E13.20026
G1 X60.532 Y163.489 E13.23148
G1 X59.875 Y163.464 E13.25334
G1 X58.943 Y163.361 E13.28453
G1 X57.988 Y163.172 E13.31691
G1 X57.625 Y163.083 E13.32934
G1 X57.397 Y163.024 E13.33718
G1 X38.274 Y157.899 E13.99565
G1 X37.628 Y157.716 E14.01799
G1 X36.737 Y157.422 E14.04919
G1 X35.875 Y157.053 E14.08038
G1 X35.047 Y156.612 E14.11158
G1 X34.26 Y156.103 E14.14275
G1 X33.519 Y155.528 E14.17395
G1 X33.076 Y155.132 E14.19371
G1 X32.827 Y154.897 E14.2051
G1 X32.599 Y154.675 E14.21568
G1 X18.569 Y140.644 E14.87564
G1 X18.101 Y140.162 E14.89798
G1 X17.477 Y139.462 E14.92917
G1 X16.915 Y138.711 E14.96037
G1 X16.555 Y138.148 E14.9826
G1 X16.107 Y137.324 E15.01379
G1 X15.731 Y136.465 E15.04498
G1 X15.446 Y135.632 E15.07426
G1 X15.35 Y135.31 E15.08544
G1 X15.266 Y135.014 E15.09567
G1 X10.14 Y115.879 E15.75454
G1 X9.966 Y115.189 E15.77821
G1 X9.776 Y114.27 E15.80942
G1 X9.664 Y113.339 E15.84061
G1 X9.632 Y112.402 E15.87179
G1 X9.681 Y111.465 E15.903
G1 X9.809 Y110.536 E15.93419
G1 X9.92 Y109.997 E15.9525
G1 X9.991 Y109.693 E15.96288
G1 X10.078 Y109.348 E15.97471
G1 X15.219 Y90.167 E16.63519
G1 X15.398 Y89.532 E16.65714
G1 X15.69 Y88.64 E16.68835
G1 X15.976 Y87.953 E16.7131
G1 X16.4 Y87.117 E16.74428
G1 X16.894 Y86.319 E16.7755
G1 X17.454 Y85.567 E16.80668
G1 X17.974 Y84.972 E16.83296
G1 X18.208 Y84.723 E16.84433
G1 X18.446 Y84.478 E16.85569
G1 X32.46 Y70.465 E17.51484
G1 X32.943 Y69.994 E17.53728
G1 X33.642 Y69.368 E17.56849
G1 X34.392 Y68.804 E17.5997
G1 X35.186 Y68.306 E17.63087
G0 F6000 X35.428 Y68.629
G1 F1200 X36.25 Y68.213 E17.66152
G1 X37.104 Y67.87 E17.69213
G1 X37.586 Y67.714 E17.70898
G1 X37.917 Y67.615 E17.72047
G1 X38.211 Y67.531 E17.73064
G1 X57.33 Y62.409 E18.38896
G1 X58.017 Y62.235 E18.41253
G1 X58.919 Y62.048 E18.44317
G1 X59.833 Y61.94 E18.47378
G1 X60.753 Y61.912 E18.5044
G1 X61.951 Y61.995 E18.54434
G1 X63.09 Y62.201 E18.58283
G1 X63.38 Y62.27 E18.59275
G1 X63.67 Y62.343 E18.6027
G1 X82.714 Y67.446 E19.25845
G1 X83.497 Y67.667 E19.28551
G1 X83.791 Y67.754 E19.29571
G1 X84.712 Y68.045 E19.32783
G1 X85.702 Y68.371 E19.3625
G1 X88.148 Y69.102 E19.44741
G1 X90.559 Y69.748 E19.53043
G1 X93.063 Y70.344 E19.61604
G1 X95.549 Y70.862 E19.7005
G1 X97.97 Y71.294 E19.78229
G1 X100.537 Y71.679 E19.86862
G1 X102.989 Y71.975 E19.95077
G1 X105.523 Y72.21 E20.03541
G1 X108.083 Y72.373 E20.12073
G1 X110.565 Y72.462 E20.20334
G1 X113.108 Y72.481 E20.28792
G1 X115.659 Y72.427 E20.37279
G1 X118.165 Y72.303 E20.45624
G1 X120.665 Y72.109 E20.53964
G1 X123.211 Y71.839 E20.62479
G1 X125.7 Y71.503 E20.70833
G1 X128.216 Y71.091 E20.79312
G1 X130.684 Y70.615 E20.87672
G1 X133.151 Y70.066 E20.96078
G1 X135.587 Y69.451 E21.04435
G1 X138.042 Y68.757 E21.1292
G1 X140.518 Y67.98 E21.21551
G1 X141.047 Y67.806 E21.23403
G1 X141.323 Y67.72 E21.24365
G1 X141.674 Y67.615 E21.25584
G1 X141.969 Y67.531 E21.26604
G1 X160.947 Y62.446 E21.91951
G1 X161.779 Y62.235 E21.94806
G1 X162.681 Y62.048 E21.9787
G1 X163.595 Y61.94 E22.00931
G1 X164.515 Y61.912 E22.03993
G1 X165.709 Y61.995 E22.07973
G1 X166.848 Y62.201 E22.11823
G1 X167.138 Y62.27 E22.12815
G1 X167.428 Y62.343 E22.13809
G1 X186.628 Y67.489 E22.79923
G1 X187.275 Y67.673 E22.8216
G1 X188.148 Y67.963 E22.8522
G1 X188.994 Y68.328 E22.88284
G1 X189.804 Y68.765 E22.91345
G1 X190.574 Y69.27 E22.94408
G1 X191.296 Y69.841 E22.97469
G1 X191.65 Y70.159 E22.99052
G1 X191.898 Y70.393 E23.00186
G1 X192.118 Y70.608 E23.01209
G1 X206.143 Y84.634 E23.67181
G1 X206.614 Y85.119 E23.6943
G1 X207.226 Y85.807 E23.72492
G1 X207.777 Y86.545 E23.75556
G1 X208.261 Y87.328 E23.78617
G1 X208.675 Y88.151 E23.81681
G1 X209.016 Y89.006 E23.84743
G1 X209.16 Y89.45 E23.86295
G1 X209.259 Y89.779 E23.87438
G1 X209.348 Y90.09 E23.88514
G1 X214.47 Y109.209 E24.54346
G1 X214.644 Y109.896 E24.56704
G1 X214.831 Y110.798 E24.59767
G1 X214.939 Y111.712 E24.62829
G1 X214.967 Y112.632 E24.6589
G1 X214.944 Y113.219 E24.67844
G1 X214.842 Y114.134 E24.70906
G1 X214.662 Y115.038 E24.73972
G1 X214.518 Y115.616 E24.75953
G1 X209.408 Y134.685 E25.41614
G1 X209.21 Y135.384 E25.44031
G1 X208.921 Y136.258 E25.47092
G1 X208.557 Y137.104 E25.50156
G1 X208.121 Y137.915 E25.53218
G1 X207.616 Y138.685 E25.56281
G1 X207.047 Y139.408 E25.59341
G1 X206.72 Y139.77 E25.60963
G1 X206.485 Y140.019 E25.62102
G1 X206.271 Y140.239 E25.63123
G1 X192.254 Y154.255 E26.29052
G1 X191.764 Y154.731 E26.31324
G1 X191.076 Y155.343 E26.34387
G1 X190.338 Y155.894 E26.3745
G1 X189.822 Y156.223 E26.39486
G1 X189.012 Y156.662 E26.4255
G1 X188.168 Y157.029 E26.45611
G1 X187.397 Y157.292 E26.48321
G1 X187.075 Y157.388 E26.49438
G1 X186.789 Y157.469 E26.50427
G1 X167.811 Y162.554 E27.15774
G1 X166.979 Y162.765 E27.18629
G1 X166.077 Y162.952 E27.21693
G1 X165.163 Y163.06 E27.24754
G1 X164.243 Y163.088 E27.27816
G1 X163.66 Y163.065 E27.29756
G1 X162.745 Y162.963 E27.32818
G1 X161.841 Y162.783 E27.35884
G1 X161.258 Y162.638 E27.37882
G1 X142.286 Y157.554 E28.0321
G1 X141.503 Y157.333 E28.05916
G1 X141.209 Y157.246 E28.06935
G1 X140.288 Y156.955 E28.10148
G1 X139.298 Y156.629 E28.13615
G1 X136.852 Y155.898 E28.22106
G1 X134.441 Y155.252 E28.30408
G1 X131.937 Y154.656 E28.38969
G1 X129.451 Y154.138 E28.47415
G1 X127.03 Y153.706 E28.55594
G1 X124.463 Y153.321 E28.64227
G1 X122.011 Y153.025 E28.72442
G1 X119.477 Y152.79 E28.80906
G1 X116.917 Y152.627 E28.89438
G1 X114.435 Y152.538 E28.97699
G1 X111.892 Y152.519 E29.06157
G1 X109.341 Y152.573 E29.14643
G1 X106.835 Y152.697 E29.22989
G1 X104.335 Y152.891 E29.31329
G1 X101.789 Y153.161 E29.39844
G1 X99.3 Y153.497 E29.48198
G1 X96.784 Y153.909 E29.56677
G1 X94.316 Y154.385 E29.65037
G1 X91.849 Y154.934 E29.73443
G1 X89.413 Y155.549 E29.818
G1 X86.96 Y156.242 E29.90278
G1 X84.482 Y157.02 E29.98916
G1 X83.953 Y157.194 E30.00768
G1 X83.677 Y157.28 E30.0173
G1 X83.326 Y157.385 E30.02949
G1 X83.031 Y157.469 E30.03969
G1 X64.053 Y162.554 E30.69316
G1 X63.221 Y162.765 E30.72171
G1 X62.319 Y162.952 E30.75235
G1 X61.405 Y163.06 E30.78296
G1 X60.485 Y163.088 E30.81357
G1 X59.902 Y163.065 E30.83298
G1 X58.987 Y162.963 E30.8636
G1 X58.083 Y162.783 E30.89426
G1 X57.5 Y162.638 E30.91424
G1 X38.383 Y157.514 E31.57252
G1 X37.737 Y157.331 E31.59485
G1 X36.863 Y157.042 E31.62547
G1 X36.017 Y156.678 E31.6561
G1 X35.206 Y156.242 E31.68672
G1 X34.436 Y155.737 E31.71735
G1 X33.713 Y155.167 E31.74797
G1 X33.351 Y154.841 E31.76418
G1 X33.102 Y154.606 E31.77556
G1 X32.882 Y154.392 E31.78577
G1 X18.856 Y140.365 E32.44554
G1 X18.388 Y139.883 E32.46788
G1 X17.776 Y139.195 E32.49851
G1 X17.226 Y138.457 E32.52912
G1 X16.898 Y137.943 E32.5494
G1 X16.459 Y137.133 E32.58004
G1 X16.092 Y136.289 E32.61065
G1 X15.829 Y135.518 E32.63775
G1 X15.733 Y135.196 E32.64892
G1 X15.652 Y134.91 E32.65881
G1 X10.528 Y115.781 E33.31747
G1 X10.354 Y115.091 E33.34114
G1 X10.168 Y114.189 E33.37177
G1 X10.06 Y113.275 E33.40238
G1 X10.033 Y112.355 E33.433
G1 X10.085 Y111.435 E33.46364
G1 X10.31 Y110.088 E33.50907
G1 X10.381 Y109.784 E33.51945
G1 X10.464 Y109.451 E33.53086
G1 X15.567 Y90.407 E34.18662
G1 X15.783 Y89.64 E34.21312
G1 X16.071 Y88.766 E34.24373
G1 X16.34 Y88.119 E34.26703
G1 X16.757 Y87.298 E34.29766
G1 X17.244 Y86.516 E34.3283
G1 X17.796 Y85.78 E34.3589
G1 X18.266 Y85.246 E34.38256
G1 X18.5 Y84.997 E34.39392
G1 X18.729 Y84.761 E34.40486
G1 X32.74 Y70.751 E35.06387
G1 X33.223 Y70.28 E35.08631
G1 X33.909 Y69.666 E35.11693
G1 X34.646 Y69.115 E35.14754
G1 X35.428 Y68.629 E35.17816
G0 F6000 X35.669 Y68.953
G1 F1200 X36.477 Y68.549 E35.20821
G1 X37.7 Y68.097 E35.25157
G1 X38.031 Y67.998 E35.26306
G1 X38.314 Y67.918 E35.27284
G1 X57.429 Y62.797 E35.93103
G1 X58.116 Y62.623 E35.9546
G1 X59 Y62.44 E35.98463
G1 X59.897 Y62.337 E36.01466
G1 X60.8 Y62.313 E36.0447
G1 X61.901 Y62.392 E36.08142
G1 X62.997 Y62.59 E36.11846
G1 X63.287 Y62.659 E36.12838
G1 X63.566 Y62.73 E36.13795
G1 X82.744 Y67.869 E36.79832
G1 X83.388 Y68.051 E36.82058
G1 X83.671 Y68.136 E36.8304
G1 X84.587 Y68.425 E36.86235
G1 X85.578 Y68.751 E36.89705
G1 X88.026 Y69.483 E36.98203
G1 X90.511 Y70.149 E37.0676
G1 X92.919 Y70.722 E37.14993
G1 X95.469 Y71.253 E37.23656
G1 X97.948 Y71.695 E37.32031
G1 X100.467 Y72.073 E37.40503
G1 X102.975 Y72.376 E37.48905
G1 X105.496 Y72.61 E37.57326
G1 X108.042 Y72.772 E37.65812
G1 X110.548 Y72.862 E37.74152
G1 X113.113 Y72.881 E37.82683
G1 X115.651 Y72.827 E37.91127
G1 X118.215 Y72.701 E37.99665
G1 X120.706 Y72.508 E38.07975
G1 X123.271 Y72.235 E38.16554
G1 X125.747 Y71.901 E38.24864
G1 X128.285 Y71.485 E38.33418
G1 X130.741 Y71.011 E38.41738
G1 X133.264 Y70.45 E38.50334
G1 X135.688 Y69.838 E38.58649
G1 X138.133 Y69.147 E38.671
G1 X140.681 Y68.348 E38.75981
G1 X141.172 Y68.186 E38.77701
G1 X141.438 Y68.103 E38.78628
G1 X141.789 Y67.998 E38.79846
G1 X142.072 Y67.918 E38.80825
G1 X161.189 Y62.796 E39.46651
G1 X161.877 Y62.622 E39.49011
G1 X162.762 Y62.44 E39.52016
G1 X163.659 Y62.336 E39.5502
G1 X164.562 Y62.313 E39.58024
G1 X165.659 Y62.392 E39.61682
G1 X166.755 Y62.59 E39.65386
G1 X167.045 Y62.659 E39.66378
G1 X167.324 Y62.73 E39.67335
G1 X186.518 Y67.874 E40.33428
G1 X187.165 Y68.058 E40.35665
G1 X188.022 Y68.343 E40.38669
G1 X188.85 Y68.703 E40.41672
G1 X189.643 Y69.135 E40.44675
G1 X190.395 Y69.635 E40.47679
G1 X191.375 Y70.45 E40.51918
G1 X191.623 Y70.684 E40.53052
G1 X191.835 Y70.891 E40.54038
G1 X205.856 Y84.913 E41.19991
G1 X206.327 Y85.398 E41.22239
G1 X206.927 Y86.073 E41.25243
G1 X207.465 Y86.798 E41.28246
G1 X207.937 Y87.569 E41.31253
G1 X208.338 Y88.378 E41.34256
G1 X208.777 Y89.565 E41.38465
G1 X208.876 Y89.894 E41.39608
G1 X208.961 Y90.193 E41.40642
G1 X214.082 Y109.308 E42.0646
G1 X214.256 Y109.995 E42.08817
G1 X214.439 Y110.879 E42.1182
G1 X214.542 Y111.776 E42.14823
G1 X214.566 Y112.679 E42.17828
G1 X214.544 Y113.192 E42.19535
G1 X214.445 Y114.09 E42.2254
G1 X214.274 Y114.942 E42.2543
G1 X214.186 Y115.301 E42.2666
G1 X214.131 Y115.513 E42.27388
G1 X209.023 Y134.576 E42.93029
G1 X208.825 Y135.275 E42.95445
G1 X208.541 Y136.132 E42.98448
G1 X208.181 Y136.961 E43.01454
G1 X207.751 Y137.754 E43.04454
G1 X207.251 Y138.507 E43.07461
G1 X206.429 Y139.496 E43.11738
G1 X206.194 Y139.745 E43.12877
G1 X205.988 Y139.956 E43.13858
G1 X191.975 Y153.968 E43.79768
G1 X191.485 Y154.444 E43.8204
G1 X190.81 Y155.044 E43.85044
G1 X190.085 Y155.582 E43.88047
G1 X189.616 Y155.88 E43.89895
G1 X188.822 Y156.31 E43.92898
G1 X187.993 Y156.668 E43.95901
G1 X187.282 Y156.909 E43.98398
G1 X186.96 Y157.005 E43.99516
G1 X186.686 Y157.082 E44.00463
G1 X167.569 Y162.204 E44.66289
G1 X166.881 Y162.378 E44.68649
G1 X165.996 Y162.56 E44.71654
G1 X165.099 Y162.664 E44.74658
G1 X164.196 Y162.687 E44.77662
G1 X163.687 Y162.665 E44.79356
G1 X162.789 Y162.566 E44.82361
G1 X161.936 Y162.395 E44.85255
G1 X161.573 Y162.306 E44.86498
G1 X161.362 Y162.251 E44.87223
G1 X142.256 Y157.131 E45.53012
G1 X141.612 Y156.949 E45.55238
G1 X141.329 Y156.864 E45.56221
G1 X140.413 Y156.575 E45.59415
G1 X139.422 Y156.249 E45.62885
G1 X136.974 Y155.517 E45.71384
G1 X134.489 Y154.851 E45.7994
G1 X132.081 Y154.278 E45.88173
